!!!!SEGMENT: pl-wumfc--n68232--005_moniuszko-stanislaw--paria-wyciag-fortepianowy-uwertura.krn
!!!cenid: 18xx:4135
!!!COM: Moniuszko, Stanisław
!!!COM-rismID: pe30008351
!!!CDT: 1819/05/05-1872/06/04
!!!CNT: Polish
!!!GTL: Paria – wyciąg fortepianowy
!!!OTL: Uwertura
!!!OMV: 005
!!!PDT:
!!!AGN:
!!!SMS-siglum: PL-Wumfc
!!!SMS-shelfmark: N68232
!!!SMS-shelfwork: 001-005 G
!!!SMS-variant:
!!!SMS-altvar:
!!!NIFC-rismSourceID: 1001171381
!!!NIFC-rismChildID: 1001171381
!!!NIFC-islandoraID: pl-wumfc:7210
!!!URL-pdf-islandora: https://repozytorium.nifc.pl/islandora/object/pl-wumfc%3A7210/datastream/PDF/view
!!!URL-scan: https://polish.musicsources.pl/pl/lokalizacje/galeria/druki-muzyczne/12634/1 @EN{Scan on Polish Music Sources Website} @PL{Skany w portalu Dziedzictwo Muzyki Polskiej w otwartym dostępie}
!!!IIIF:
!!!ONB-nifc: UWAGA: str. 16-21. Uwaga: proszę w pliku umieszczać obsadę, która występuje tylko w danej części.
!!!AIN: 1 piano
!!!key: C
**kern	**fing	**kern	**dynam	**fing
*part1	*part1	*part1	*part1	*part1
*staff2	*staff2	*staff1	*	*staff2
*I"Piano.	*	*I"Piano.	*	*
*Ipiano	*	*Ipiano	*	*
*ICklav	*	*ICklav	*	*
*clefF4	*	*clefG2	*	*
*k[]	*	*k[]	*	*
*C:	*	*C:	*	*
*M4/4	*	*M4/4	*	*
*met(c)	*	*met(c)	*	*
=1	=1	=1	=1	=1
*tremolo	*	*	*	*
!!LO:TX:a:B:t=Allegro agitato.
16A\LL	.	2r	p	.
16c\	.	.	.	.
16A\	.	.	.	.
16c\	.	.	.	.
16A\	.	.	.	.
16c\	.	.	.	.
16A\	.	.	.	.
16c\JJ	.	.	.	.
16A\LL	.	4r	.	.
16c\	.	.	.	.
16A\	.	.	.	.
16c\	.	.	.	.
16A\	.	8.r	.	.
16c\	.	.	.	.
16A\	.	.	.	.
16c\JJ	.	16ee\	f	.
=2	=2	=2	=2	=2
16A\LL	.	(2aa\	>	.
16c\	.	.	.	.
16A\	.	.	.	.
16c\	.	.	.	.
16A\	.	.	.	.
16c\	.	.	.	.
16A\	.	.	.	.
16c\JJ	.	.	.	.
16A\LL	.	4gg\)	]	.
16c\	.	.	.	.
16A\	.	.	.	.
16c\	.	.	.	.
16A\	.	8.r	.	.
16c\	.	.	.	.
16A\	.	.	.	.
16c\JJ	.	16cc\	.	.
=3	=3	=3	=3	=3
16A\LL	.	(2ff\	>	.
16c\	.	.	.	.
16A\	.	.	.	.
16c\	.	.	.	.
16A\	.	.	.	.
16c\	.	.	.	.
16A\	.	.	.	.
16c\JJ	.	.	.	.
16A\LL	.	4ee\)	]	.
16c\	.	.	.	.
16A\	.	.	.	.
16c\	.	.	.	.
16A\	.	8.r	.	.
16c\	.	.	.	.
16A\	.	.	.	.
16c\JJ	.	16a/	.	.
=4	=4	=4	=4	=4
*	*	*^	*	*
16B\LL	.	(4.dd/	1f	>	.
16A\	.	.	.	.	.
16B\	.	.	.	.	.
16A\	.	.	.	.	.
16B\	.	.	.	.	.
16A\	.	.	.	.	.
16B\	.	16cc/LL	.	.	.
16A\JJ	.	16b/JJ	.	.	.
*Xtremolo	*	*	*	*	*
16c\LL	.	4a/)	.	]	.
16A\	.	.	.	.	.
16c\	.	.	.	.	.
16A\JJ	.	.	.	.	.
16d\LL	.	4b 4g#X/	.	.	.
16A\	.	.	.	.	.
16d\	.	.	.	.	.
16A\JJ	.	.	.	.	.
!!LO:LB:g=original
=5	=5	=5	=5	=5	=5
16e\LL	.	(2cc 2a/	8f\	.	.
16A\	.	.	.	.	.
16e\	.	.	8r	.	.
16A\JJ	.	.	.	.	.
16c\LL	.	.	4d#X^>\	.	.
16A\	.	.	.	.	.
16c\	.	.	.	.	.
16A\JJ	.	.	.	.	.
*Xtuplet	*	*	*	*	*
12r	.	4b 4g#X/)	4e\	.	.
12f\L	.	.	.	.	.
12e\J	.	.	.	.	.
12dn\L	.	8r	4ryy	.	.
12c\	.	.	.	.	.
.	.	8e/	.	.	.
12B\J	.	.	.	.	.
=6	=6	=6	=6	=6	=6
12AL 12AA/	.	4a 4c^>/	2ryy	.	.
12E/	.	.	.	.	.
12E/J	.	.	.	.	.
12E\L	.	8.g#XL 8.B/	.	.	.
12E\	.	.	.	.	.
12E\J	.	.	.	.	.
.	.	16aJk 16c/	.	.	.
12EL 12EE/	.	2b^/	8g#\L	.	.
12F/	.	.	.	.	.
.	.	.	16r	.	.
12E/J	.	.	.	.	.
.	.	.	16B\K	.	.
12D/L	.	.	8e\	.	.
12C/	.	.	.	.	.
.	.	.	16r	.	.
12BB/J	.	.	.	.	.
.	.	.	16g#\Jk	.	.
*	*	*v	*v	*	*
=7	=7	=7	=7	=7
12AA/L	.	4cc 4a\	.	.
12E/	.	.	.	.
12E/J	.	.	.	.
12E\L	.	8.ffL 8.a\	.	.
12e\	.	.	.	.
12e\J	.	.	.	.
.	.	16eeJk 16g#X\	.	.
12eL 12E\	.	(4ee 4g#^\	.	.
12f\	.	.	.	.
12e\J	.	.	.	.
12d\L	.	8b\)	.	.
12c\	.	.	.	.
.	.	8r	.	.
12B\J	.	.	.	.
!!LO:LB:g=original
=8	=8	=8	=8	=8
12AL 12AA/	.	4cc 4a/	.	.
12E/	.	.	.	.
12E/J	.	.	.	.
12E\L	.	8.bL 8.g#X/	.	.
12E\	.	.	.	.
12E\J	.	.	.	.
.	.	16ccJk 16a/	.	.
12GnL 12GGn\	.	2dd 2b^\	.	.
12A\	.	.	.	.
12G\J	.	.	.	.
12F\L	.	.	.	.
12E\	.	.	.	.
12D\J	.	.	.	.
=9	=9	=9	=9	=9
12C\L	.	8.eeL 8.cc\	.	.
12G\	.	.	.	.
12G\J	.	.	.	.
.	.	16ff\K	.	.
12G\L	.	8.aa 8.cc\	.	.
*clefG2	*	*	*	*
12g\	.	.	.	.
12g\J	.	.	.	.
.	.	16ggJk 16b\	.	.
12g/L	.	(4gg 4b^\	.	.
12a/	.	.	.	.
12g/J	.	.	.	.
12f/L	.	8dd\)	.	.
12e/	.	.	.	.
.	.	8r	.	.
12d/J	.	.	.	.
*clefF4	*	*	*	*
=10	=10	=10	=10	=10
*	*	*^	*	*
*	*	*	*^	*	*
12c^\L	.	4ee/	4g\	2cc\	p	.
12B\	.	.	.	.	.	.
12A\J	.	.	.	.	.	.
12A\L	.	8.ff/L	2f\	.	.	.
12G\	.	.	.	.	.	.
12A\J	.	.	.	.	.	.
.	.	16ee/Jk	.	.	.	.
12B^\L	.	4dd/	.	2b\	.	.
12A\	.	.	.	.	.	.
12G\J	.	.	.	.	.	.
12G\L	.	4ee/	[4e\	.	.	.
12F\	.	.	.	.	.	.
12G\J	.	.	.	.	.	.
!!LO:LB:g=original
=11	=11	=11	=11	=11	=11	=11
12A^\L	.	4cc/	4e\]	2a\	.	.
12G\	.	.	.	.	.	.
12F\J	.	.	.	.	.	.
12F\L	.	8.dd/L	2d\	.	.	.
12E\	.	.	.	.	.	.
12F\J	.	.	.	.	.	.
.	.	16cc/Jk	.	.	.	.
12G^\L	.	4b/	.	2g\	.	.
12F\	.	.	.	.	.	.
12E\J	.	.	.	.	.	.
12E\L	.	8cc/	8c\	.	.	.
12D\	.	.	.	.	.	.
.	.	8r	8r	.	.	.
12C\J	.	.	.	.	.	.
*	*	*v	*v	*v	*	*
=12	=12	=12	=12	=12
12cL 12A\	.	([2a/	.	.
12d\	.	.	.	.
12c\J	.	.	.	.
12BL 12G\	.	.	.	.
12A\	.	.	.	.
12G\J	.	.	.	.
*	*	*Xtuplet	*	*
[4F\	.	12a]L 12c/	<	.
.	.	12b 12d/	.	.
.	.	12ccJ 12e/	.	.
12F\L]	.	12ddL 12f\	.	.
12E\	.	12ee 12g\	.	.
12D\J	.	12ffJ 12a\)	[[	.
=13	=13	=13	=13	=13
*^	*	*	*	*
12E/L	4C\	.	(4ee 4a (4e/	>	.
12A/	.	.	.	.	.
12G/J	.	.	.	.	.
12F/L	8D\	.	8ddL 8d/))	.	.
12A/	.	.	.	.	.
.	8r	.	16r	.	.
12F/J	.	.	.	.	.
.	.	.	16a/Jk	.	.
12E\L	2ryy	.	(>4cc 4a/	]	.
12A\	.	.	.	.	.
12c\J	.	.	.	.	.
12G#XL 12E\	.	.	8b/)	.	.
12B\	.	.	.	.	.
.	.	.	8r	.	.
12e\J	.	.	.	.	.
!!LO:LB:g=original
=14	=14	=14	=14	=14	=14
*	*	*	*^	*	*
(<4F/	12F\L	.	([2a/	4r	<	.
.	12A\	.	.	.	.	.
.	12F\J	.	.	.	.	.
4E/	12E\L	.	.	4g#X\	.	.
.	12B\	.	.	.	.	.
.	12e\J	.	.	.	.	.
12c#X/L	4A\	.	12a/L]	4gn\	.	.
12d/	.	.	12b/	.	.	.
12e/J	.	.	12cc#X/J	.	.	.
8A 8D\)	4ryy	.	12ddL 12f\	4ryy	.	.
.	.	.	12ee 12g\	.	.	.
8r	.	.	.	.	.	.
.	.	.	12ffJ 12a\)	.	[[	.
*v	*v	*	*	*	*	*
*	*	*v	*v	*	*
=15	=15	=15	=15	=15
(4e (4c#X\	.	(4gg (4b-X\	sf >	.
8f 8d\))	.	8ffL 8a\))	.	.
8r	.	16r	.	.
.	.	16a\Jk	.	.
(4f#X (4d#X\	.	(4ccn (4a/	] sf >	.
8e\))	.	8bn 8g#X/))	.	.
8r	.	16r	]	.
.	.	16ee\	.	.
=16	=16	=16	=16	=16
(4c#X (4E\	.	(4ggn 4b-X (4gn\	sf >	.
8d 8F\))	.	8ffL 8a 8f\))	.	.
8r	.	16r	.	.
.	.	16a\Jk	.	.
(4e-X (4F#X\	.	(4cc (4a/	] sf >	.
8d 8G\))	.	8bnL 8g/))	.	.
8r	.	16r	.	.
.	.	16b/Jk	]]	.
=17	=17	=17	=17	=17
(4f (4G#X\	.	(4dd (4b\	sf >	.
8en 8A\))	.	8ccL 8a/))	.	.
8r	.	16r	.	.
.	.	16a/Jk	.	.
(4d (4B\	.	(4ff (4g#X\	] sf >	.
8e 8c\))	.	8eeL 8a/))	.	.
8r	.	16r	.	.
.	.	16a/Jk	]]	.
!!LO:LB:g=original
=18	=18	=18	=18	=18
8dL 8F 8D\	.	[4aa [4ff [4dd [4a\	sf >	.
16r	.	.	.	.
16dJk 16G 16E 16D\	.	.	.	.
8d 8A 8F 8D\	.	12aa]L 12ff] 12dd] 12a\]	.	.
.	.	(12gg#X\	.	.
8r	.	.	.	.
.	.	12ggn\J	]	.
2r	.	12ff\L	.	.
.	.	12ee\	.	.
.	.	12dd\J	.	.
.	.	12cc\L	.	.
.	.	12b\	.	.
.	.	12a\J)	.	.
=19	=19	=19	=19	=19
8eL 8c 8E\	.	[4aa [4ee [4cc [4a\	sf >	.
16r	.	.	.	.
16eJk 16d 16B 16E\	.	.	.	.
8e 8c 8A 8E\	.	12aa]L 12ee] 12cc] 12a\]	.	.
.	.	(12gg#X\	.	.
8r	.	.	.	.
.	.	12ggn\J	]	.
2r	.	12ff\L	.	.
.	.	12ee\	.	.
.	.	12dd\J	.	.
.	.	12cc\L	.	.
.	.	12b\	.	.
.	.	12a\J)	.	.
=20	=20	=20	=20	=20
*^	*	*^	*	*
2A/	(4F\	.	(4.ccc/	2ee-X\	fp	.
.	4F#X\	.	.	.	.	.
.	.	.	16ddd/LL	.	.	.
.	.	.	16ccc/JJ	.	.	.
8G/L	4G\	.	4bb/	2dd\	.	.
16r	.	.	.	.	.	.
16fn/K	.	.	.	.	.	.
8.e/	4G#X\	.	4een/)	.	.	.
16d/Jk	.	.	.	.	.	.
=21	=21	=21	=21	=21	=21	=21
4c/	4A\	.	(4.aa/	2a\	.	.
4d/	4B\	.	.	.	.	.
.	.	.	16bb/LL	.	.	.
.	.	.	16aa/JJ	.	.	.
2e/	4c\	.	4gg/	2ryy	.	.
.	4c#X\	.	4a/)	.	.	.
!!LO:PB:g=original
=22	=22	=22	=22	=22	=22	=22
2f/	4d\	.	(4.ff/	4r	.	.
.	4d-X\	.	.	4b-X\	.	.
.	.	.	16gg/LL	.	.	.
.	.	.	16ff/JJ	.	.	.
2ryy	8c\L	.	4ee\ 4cc\ 4g\	2ryy	.	.
.	16r	.	.	.	.	.
.	16B-X\K	.	.	.	.	.
.	8A\	.	4cc#X 4a 4e//	.	.	.
.	16r	.	.	.	.	.
.	16G\Jk	.	.	.	.	.
*v	*v	*	*	*	*	*
*	*	*v	*v	*	*
=23	=23	=23	=23	=23
8F\)	.	8dd 8a 8d/)	.	.
8r	.	16r	.	.
.	.	16ee\	f	.
4r	.	[4gg^\	.	.
*	*	*tuplet	*	*
!	!	!LO:TUP:a:problem:klamra łukowa	!	!
2r	.	12gg\L]	.	.
.	.	12ff\	.	.
.	.	12ee\J	.	.
!	!	!LO:TUP:a:problem:klamra łukowa	!	!
.	.	12dd\L	.	.
.	.	12cc\	.	.
.	.	12b\J	.	.
=24	=24	=24	=24	=24
.	.	8qa/	>	.
*^	*	*	*	*
4C 4AA/	2EE\	.	(2aa\	.	.
4D 4BB/	.	.	.	.	.
[4E 4C/	2EE\	.	4ee\)	]	.
4E] 4BB/	.	.	8.r	.	.
.	.	.	16e/	.	.
*v	*v	*	*	*	*
=25	=25	=25	=25	=25
4F#X 4AA 4EE/	.	(2a/	>	.
4G#X 4BB\	.	.	.	.
4A 4C\	.	4e/)	]	.
4B 4E\	.	8.r	.	.
.	.	16ee\	.	.
!!LO:LB:g=original
=26	=26	=26	=26	=26
4c 4A 4E\	.	(2aa\	>	.
4e 4B 4E\	.	.	.	.
4f#X 4A 4E\	.	8ee\)	]	.
.	.	8r	.	.
4B 4E\	.	8.eeL 8.g#X\	.	.
.	.	16ee\Jk	.	.
=27	=27	=27	=27	=27
8c 8E\	.	8ee 8a\	.	.
8r	.	8r	.	.
4d 4B 4G#X 4D^\	.	4eee 4bb 4gg#X 4ee^\	.	.
4c 4A 4F#X 4C^\	.	4fff#X 4ccc 4aa 4ff#X^\	.	.
4B 4G# 4E 4BB^\	.	4ggg#X 4ddd 4bb 4gg#^\	.	.
=28	=28	=28	=28	=28
*^	*	*	*	*
2A 2E 2C/	4AA\	.	(2aaa 2ccc (2aa\	sf >	.
.	4AA\	.	.	.	.
2B 2F 2D/	4AA\	.	4gggn 4ggn\))	]]	.
.	4AA\	.	8.r	.	.
.	.	.	[16ccc [16aa\	.	.
=29	=29	=29	=29	=29	=29
2B# 2D#X/	4AA\	.	(2fff 2ccc] 2aa] (2ff\	.	.
.	4AA\	.	.	.	.
2c#X 2E/	4AA\	.	4eee 4ee\))	.	.
.	4AA\	.	8.r	.	.
.	.	.	16aa\	.	.
*v	*v	*	*	*	*
=30	=30	=30	=30	=30
4F 4D 4AA/	.	(4ddd 4ff 4dd^\	.	.
4F#X 4D#X 4AA/	.	8.cccL 8.ff#X 8.cc\	.	.
.	.	16bbJk 16b\	.	.
4G 4E 4AA\	.	4aa 4gg 4ee 4a\	.	.
4G#X 4E#X 4AA\	.	4bb 4gg#X 4ee#X 4b\	.	.
!!LO:LB:g=original
=31	=31	=31	=31	=31
*^	*	*	*	*
4AA\	2A/ 2F#X/ 2D#X/	.	(2ccc 2ff#X 2dd#X (2cc\	.	.
4AA\	.	.	.	.	.
*	*tuplet	*	*	*	*
!	!LO:TUP:a:problem:klamra łukowa	!	!	!	!
2ryy	12GL 12E\	.	8bb 8ee 8b\)))	.	.
.	12fn\	.	.	.	.
.	.	.	8r	.	.
.	12e\J	.	.	.	.
*	*Xtuplet	*	*	*	*
.	12d\L	.	4ee\	.	.
.	12c\	.	.	.	.
.	12B\J	.	.	.	.
=32	=32	=32	=32	=32	=32
4c/	12c\L	.	4aa 4a^\	.	.
.	12e\	.	.	.	.
.	12E\J	.	.	.	.
8.B/L	12B\L	.	8.gg#XL 8.g#X\	.	.
.	12e\	.	.	.	.
.	12E\J	.	.	.	.
16A/Jk	.	.	16aaJk 16a\	.	.
4G#X/	12G#\L	.	2bb 2b^\	.	.
.	12e\	.	.	.	.
.	12E\J	.	.	.	.
8.A/L	12F#X\L	.	.	.	.
.	12e\	.	.	.	.
.	12E\J	.	.	.	.
16B/Jk	.	.	.	.	.
=33	=33	=33	=33	=33	=33
4A/	12A\L	.	4ccc 4cc^\	.	.
.	12e\	.	.	.	.
.	12E\J	.	.	.	.
8.G#X/L	12G#\L	.	8.bbL 8.b\	.	.
.	12e\	.	.	.	.
.	12E\J	.	.	.	.
16F#X/Jk	.	.	16aaJk 16a\	.	.
12G#L 12E\	2ryy	.	2bb 2ee 2b^\	.	.
12fn\	.	.	.	.	.
12e\J	.	.	.	.	.
12d\L	.	.	.	.	.
12c\	.	.	.	.	.
12B\J	.	.	.	.	.
=34	=34	=34	=34	=34	=34
12cL 12A\	4ryy	.	4ccc 4cc^\	.	.
12e\	.	.	.	.	.
12E\J	.	.	.	.	.
8.B/L	12B\L	.	8.bbL 8.b\	.	.
.	12e\	.	.	.	.
.	12E\J	.	.	.	.
16A/Jk	.	.	16cccJk 16cc\	.	.
2B/	12Gn\L	.	2ddd 2gg 2dd^\	.	.
.	12g\	.	.	.	.
.	12G\J	.	.	.	.
.	12g\L	.	.	.	.
.	12G\	.	.	.	.
.	12g\J	.	.	.	.
!!LO:LB:g=original
=35	=35	=35	=35	=35	=35
4c/	12c\L	.	4eee 4ee^\	.	.
.	12g\	.	.	.	.
.	12G\J	.	.	.	.
8.B/L	12B\L	.	8.dddL 8.dd\	.	.
.	12g\	.	.	.	.
.	12G\J	.	.	.	.
16A/Jk	.	.	16cccJk 16cc\	.	.
12BL 12G\	2ryy	.	4ddd 4gg 4dd^\	.	.
12a\	.	.	.	.	.
12g\J	.	.	.	.	.
12f\L	.	.	4r	.	.
12e\	.	.	.	.	.
12d\J	.	.	.	.	.
*v	*v	*	*	*	*
=36	=36	=36	=36	=36
*	*	*8va	*	*
*^	*	*	*	*
12E/L	2C^\	.	4.eee 4.ccc 4.gg 4.ee^>/	ff	.
12G/	.	.	.	.	.
12c/J	.	.	.	.	.
12E/L	.	.	.	.	.
12G/	.	.	.	.	.
.	.	.	8fff 8ff\	.	.
12c/J	.	.	.	.	.
12D/L	4BB\	.	8ggg 8ddd 8gg\	.	.
12G/	.	.	.	.	.
*	*	*	*X8va	*	*
.	.	.	8r	.	.
12B/J	.	.	.	.	.
12D/L	4BB-X\	.	4eee 4gg 4ee\	.	.
12G/	.	.	.	.	.
12B-X/J	.	.	.	.	.
=37	=37	=37	=37	=37	=37
12C/L	2AA^\	.	4.ccc 4.aa 4.ee 4.cc^\	.	.
12E/	.	.	.	.	.
12A/J	.	.	.	.	.
12C/L	.	.	.	.	.
12E/	.	.	.	.	.
.	.	.	8ddd 8dd\	.	.
12A/J	.	.	.	.	.
12BB/L	4GG#X\	.	8eee 8bb 8ee\	.	.
12E/	.	.	.	.	.
.	.	.	8r	.	.
12G#X/J	.	.	.	.	.
12BB/L	4GGn\	.	4ccc 4aa 4cc\	.	.
12E/	.	.	.	.	.
12Gn/J	.	.	.	.	.
!!LO:LB:g=original
=38	=38	=38	=38	=38	=38
12AA/L	4FF^\	.	4.bb 4.aa 4.dd 4.b^\	.	.
12D/	.	.	.	.	.
12F/J	.	.	.	.	.
12A/L	4F\	.	.	.	.
12d/	.	.	.	.	.
.	.	.	16ccc\LL	.	.
12f/J	.	.	.	.	.
.	.	.	16ddd\JJ	.	.
12A/L	4E\	.	8ccc 8aa\	.	.
12c/	.	.	.	.	.
.	.	.	8r	.	.
12e/J	.	.	.	.	.
12F/L	4D\	.	4bb 4aa 4ff 4b\	.	.
12A/	.	.	.	.	.
12B/J	.	.	.	.	.
=39	=39	=39	=39	=39	=39
12E/L	4C\	.	[2eee 2aa [2ee\	.	.
12A/	.	.	.	.	.
12c/J	.	.	.	.	.
12BL 12BB\	2.ryy	.	.	.	.
12E\	.	.	.	.	.
12AJ 12AA\	.	.	.	.	.
12E\L	.	.	8eee] 8ee\]	.	.
12A\	.	.	.	.	.
.	.	.	8r	.	.
12G\J	.	.	.	.	.
12F\L	.	.	4r	.	.
12E\	.	.	.	.	.
12D\J	.	.	.	.	.
*v	*v	*	*	*	*
=40	=40	=40	=40	=40
*	*	*8va	*	*
*^	*	*	*	*
12E/L	2C\	.	4.eee 4.ccc 4.gg 4.ee/	???	.
12G/	.	.	.	.	.
12c/J	.	.	.	.	.
12E/L	.	.	.	.	.
12G/	.	.	.	.	.
.	.	.	8fff 8ff\	.	.
12c/J	.	.	.	.	.
12D/L	4BB\	.	8ggg 8ddd 8gg\	.	.
12G/	.	.	.	.	.
*	*	*	*X8va	*	*
.	.	.	8r	.	.
12B/J	.	.	.	.	.
12D/L	4BB-X\	.	4eee 4gg 4ee\	.	.
12G/	.	.	.	.	.
12B-X/J	.	.	.	.	.
!!LO:LB:g=original
=41	=41	=41	=41	=41	=41
12C#X/L	4AA\	.	4.ccc#X 4.aa 4.ee 4.cc#X\	sf	.
12E/	.	.	.	.	.
12A/J	.	.	.	.	.
12c#X/L	4A\	.	.	.	.
12e/	.	.	.	.	.
.	.	.	8ddd 8dd\	.	.
12a/J	.	.	.	.	.
12B/L	4G#X\	.	8eee 8bb 8ee\	.	.
12e/	.	.	.	.	.
.	.	.	8r	.	.
12g#X/J	.	.	.	.	.
12A/L	4Gn\	.	4aa 4a\	.	.
12c#/	.	.	.	.	.
12e/J	.	.	.	.	.
=42	=42	=42	=42	=42	=42
12F#X/L	4F#\	.	4.ddd 4.aa 4.dd\	???	.
12A/	.	.	.	.	.
12d/J	.	.	.	.	.
12A/L	4Fn\	.	.	.	.
12B/	.	.	.	.	.
.	.	.	16ccc\LL	.	.
12d/J	.	.	.	.	.
.	.	.	16bb\JJ	.	.
12A/L	4E\	.	8eee 8aa 8ee\	.	.
12c/	.	.	.	.	.
.	.	.	8r	.	.
12e/J	.	.	.	.	.
12F/L	4D\	.	4aa 4a\	.	.
12A/	.	.	.	.	.
12B/J	.	.	.	.	.
=43	=43	=43	=43	=43	=43
12E/L	[4C\	.	(2ccc 2aa 2ee (2cc\	>	.
12A/	.	.	.	.	.
12c/J	.	.	.	.	.
12E/L	4C\]	.	.	.	.
12A/	.	.	.	.	.
24BB/L	.	.	.	]	.
24AA/JJ	.	.	.	.	.
8E\	2ryy	.	8bb 8gg#X 8ee 8b\))	.	.
8r	.	.	8r	.	.
4e\	.	.	4r	.	.
*v	*v	*	*	*	*
!!LO:PB:g=original
=44	=44	=44	=44	=44
*	*	*Xtuplet	*	*
(2f^\	.	12a/L	.	.
.	.	12b/	.	.
.	.	12a/J	.	.
.	.	12b/L	.	.
.	.	12a/	.	.
.	.	12b/J	.	.
8e\)	.	12a/L	.	.
.	.	12b/	.	.
8r	.	.	.	.
.	.	12a/J	.	.
4B'\	.	12b/L	.	.
.	.	12a/	.	.
.	.	12b/J	.	.
=45	=45	=45	=45	=45
*^	*	*	*	*
(2f (2d^\	2.ryy	.	12g#X/L	.	.
.	.	.	12b/	.	.
.	.	.	12g#/J	.	.
.	.	.	12b/L	.	.
.	.	.	12g#/	.	.
.	.	.	12b/J	.	.
8e 8c\))	.	.	12a/L	.	.
.	.	.	12cc/	.	.
8r	.	.	.	.	.
.	.	.	12a/J	.	.
12d/L	4B\	.	4eee 4ee\	.	.
12b/	.	.	.	.	.
12d/J	.	.	.	.	.
=46	=46	=46	=46	=46	=46
12c^</L	1A	.	(2fff (2ff\	sf	.
12e/	.	.	.	.	.
12a/J	.	.	.	.	.
12B^/L	.	.	.	.	.
12d/	.	.	.	.	.
12a/J	.	.	.	.	.
12c^/L	.	.	8eee 8ee\))	.	.
12e/	.	.	.	.	.
.	.	.	8r	.	.
12a/J	.	.	.	.	.
12d^/L	.	.	4aa\	.	.
12f/	.	.	.	.	.
12a/J	.	.	.	.	.
*v	*v	*	*	*	*
=47	=47	=47	=47	=47
12cL 12A\	.	(2ccc 2cc\	sf	.
12d#X\	.	.	.	.
12f#X\J	.	.	.	.
12c\L	.	.	.	.
12e\	.	.	.	.
12a\J	.	.	.	.
12B\L	.	4aa\)	.	.
12dn\	.	.	.	.
12a\J	.	.	.	.
12cL 12A\	.	4r	.	.
12e\	.	.	.	.
12a\J	.	.	.	.
!!LO:LB:g=original
=48	=48	=48	=48	=48
*	*	*^	*	*
!	!	!	!	!LO:DY:a	!
(2B-X^\	.	1cc#X	12g\L	fp	.
.	.	.	12e\	.	.
.	.	.	12g\J	.	.
.	.	.	12e\L	.	.
.	.	.	12g\	.	.
.	.	.	12e\J	.	.
8A\)	.	.	12g\L	.	.
.	.	.	12e\	.	.
8r	.	.	.	.	.
.	.	.	12g\J	.	.
!	!	!LO:TX:t=P:problem:mixed beam	!	!	!
4E'>\	.	.	12e\L	.	.
.	.	.	12g\	.	.
.	.	.	12e</J	.	.
*	*	*v	*v	*	*
=49	=49	=49	=49	=49
*^	*	*	*	*
!	!	!	!	!LO:DY:a	!
12c#X/L	2G^\	.	(2b-X/	sf >	.
12e/	.	.	.	.	.
12c#/J	.	.	.	.	.
12e/L	.	.	.	.	.
12c#/	.	.	.	.	.
12e/J	.	.	.	.	.
4F/	12F\L	.	8a/)	.	.
.	12A\	.	.	.	.
.	.	.	8r	]	.
.	12d\J	.	.	.	.
4E/	12E\L	.	4aa 4a\	.	.
.	12A\	.	.	.	.
.	12e\J	.	.	.	.
*v	*v	*	*	*	*
=50	=50	=50	=50	=50
12D\L	.	(2bb-X 2b-X\	sf >	.
12d\	.	.	.	.
12f\J	.	.	.	.
*clefG2	*	*	*	*
12g/L	.	.	.	.
12e/	.	.	.	.
12g/J	.	.	.	.
12a/L	.	8aa\)	.	.
12f/	.	.	.	.
.	.	8r	]	.
12a/J	.	.	.	.
12b-X/L	.	4dd\	.	.
12g/	.	.	.	.
12b-/J	.	.	.	.
=51	=51	=51	=51	=51
*^	*	*	*	*
12bn/L	2.ryy	.	(2ff\	sf	.
12g#X/	.	.	.	.	.
12b/J	.	.	.	.	.
12a/L	.	.	.	.	.
12dd/	.	.	.	.	.
12a/J	.	.	.	.	.
12f/L	.	.	8dd\)	.	.
12a/	.	.	.	.	.
.	.	.	8r	.	.
12f/J	.	.	.	.	.
*clefF4	*	*	*	*	*
4D/	12D\L	.	4aa 4a\	.	.
.	12A\	.	.	.	.
.	12d\J	.	.	.	.
!!LO:LB:g=original
=52	=52	=52	=52	=52	=52
!LO:N:vis=2	!	!	!	!	!
12F/L	2F\	.	2gg#X 2dd 2g#X\	.	.
12G#X/	.	.	.	.	.
12B/J	.	.	.	.	.
12d/L	.	.	.	.	.
12B/	.	.	.	.	.
12G#/J	.	.	.	.	.
12E/L	4E\	.	8bb 8b\	.	.
12G#/	.	.	.	.	.
.	.	.	8r	.	.
12B/J	.	.	.	.	.
12BB/L	4BB\	.	4ee'\	.	.
12E/	.	.	.	.	.
12G#/J	.	.	.	.	.
=53	=53	=53	=53	=53	=53
!LO:N:vis=2	!	!	!	!LO:HP:b=2	!
12D/L	2D\	.	2b 2g#X 2e/	>	.
12E/	.	.	.	.	.
12G#X/J	.	.	.	.	.
12B/L	.	.	.	.	.
12G#/	.	.	.	.	.
12E/J	.	.	.	.	.
12C/L	4C\	.	8cc 8a 8e/	]	.
12E/	.	.	.	.	.
.	.	.	8r	.	.
12A/J	.	.	.	.	.
12G#/L	4G#\	.	4bb 4b\	.	.
12B/	.	.	.	.	.
12c/J	.	.	.	.	.
=54	=54	=54	=54	=54	=54
!LO:N:vis=2	!	!	!	!	!
12A/L	2A\	.	2.ccc 2.cc\	.	.
12c/	.	.	.	.	.
12e/	.	.	.	.	.
12a/	.	.	.	.	.
12e/	.	.	.	.	.
12c/J	.	.	.	.	.
!LO:N:vis=2	!	!	!	!	!
12G/L	2Gn\	.	.	.	.
12A/	.	.	.	.	.
12c/	.	.	.	.	.
12e/	.	.	4eee 4ee\	.	.
12c/	.	.	.	.	.
12A/J	.	.	.	.	.
=55	=55	=55	=55	=55	=55
!LO:N:vis=2	!	!	!	!	!
12F#X/L	2F#\	.	4ddd 4dd\	.	.
12A/	.	.	.	.	.
12c/	.	.	.	.	.
12d/	.	.	4ccc 4cc\	.	.
12c/	.	.	.	.	.
12A/J	.	.	.	.	.
!LO:N:vis=2	!	!	!	!	!
12Fn/L	2F\	.	4bb 4b\	.	.
12A/	.	.	.	.	.
12B/	.	.	.	.	.
12d#X/	.	.	4aa 4a\	.	.
12B/	.	.	.	.	.
12A/J	.	.	.	.	.
!!LO:LB:g=original
=56	=56	=56	=56	=56	=56
!LO:N:vis=2	!	!	!	!	!
12E/L	2E\	.	2eee 2bb 2gg#X 2ee^\	ff	.
12G#X/	.	.	.	.	.
12B/J	.	.	.	.	.
12e/L	.	.	.	.	.
12B/	.	.	.	.	.
12G#/J	.	.	.	.	.
12F/L	[4E\	.	12dddL 12aa\	.	.
12E/	.	.	12ccc\	.	.
12F/J	.	.	12bb\J	.	.
12F#X/L	4E\]	.	12aa\L	.	.
12E#X/	.	.	12gg#X\	.	.
12F#/J	.	.	12aa\J	.	.
=57	=57	=57	=57	=57	=57
*	*	*^	*	*	*
12Gn/L	2E\	.	.	2ccc 2ggn 2ee^\	.	.
12c/	.	.	.	.	.	.
12G/J	.	.	.	.	.	.
12E/L	.	.	.	.	.	.
12G/	.	.	.	.	.	.
12c/J	.	.	4	.	.	.
12F#X/L	4E\	.	.	8bb 8ff#X 8dd#X\	.	.
12G/	.	1	.	.	.	.
.	.	.	.	8r	.	.
12F#/J	.	2	4	.	.	.
12Fn/L	4E\	3	.	4bb 4aa 4b'\	.	.
12G/	.	2	.	.	.	.
12F/J	.	.	.	.	.	.
*	*	*v	*v	*	*	*
=58	=58	=58	=58	=58	=58
!LO:N:vis=2	!	!	!	!	!
12E/L	2E\	.	2eee 2bb 2gg#X 2ee^\	.	.
12G#X/	.	.	.	.	.
12B/J	.	.	.	.	.
12e/L	.	.	.	.	.
12B/	.	.	.	.	.
12G#/J	.	.	.	.	.
12F/L	4E\	.	12dddL 12aa\	.	.
12E/	.	.	12ccc\	.	.
12F/J	.	.	12bb\J	.	.
12F#X/L	4E\	.	12aa\L	.	.
12E#X/	.	.	12gg#X\	.	.
12F#/J	.	.	12aa\J	.	.
!!LO:LB:g=original
=59	=59	=59	=59	=59	=59
*	*	*^	*	*	*
12Gn/L	2E\	.	.	2ccc 2ggn 2ee^\	.	.
12c/	.	.	.	.	.	.
12G/J	.	.	.	.	.	.
12E/L	.	.	.	.	.	.
12G/	.	.	.	.	.	.
12c/J	.	.	4	.	.	.
12F#X/L	4E\	.	.	8bb 8ff#X 8dd#X\	.	.
12G/	.	1	.	.	.	.
.	.	.	.	8r	.	.
12F#/J	.	2	.	.	.	.
12Fn/L	4E\	3	.	4bb 4aa 4b'\	.	.
12G/	.	.	.	.	.	.
12F/J	.	.	.	.	.	.
*	*	*v	*v	*	*	*
*v	*v	*	*	*	*
=60	=60	=60	=60	=60
*	*	*8va	*	*
8e 8B 8G#X 8E\	.	12bb\L	ff	.
.	.	12eee\	.	.
8r	.	.	.	.
.	.	12ggg#X\J	.	.
2e 2B 2G# 2E^\	.	[4bbb 4ggg# [4eee 4bb^\	.	.
.	.	12bbb]L 12eee\]	.	.
.	.	12aaa\	.	.
.	.	12ggg#\J	.	.
4e 4c 4A 4E\	.	12fff#X\L	.	.
.	.	12ggg#\	.	.
.	.	12aaa\J	.	.
=61	=61	=61	=61	=61
4e 4B 4G#X 4E\	.	12ggg#X\L	.	.
.	.	12fff#X\	.	.
.	.	12eee\J	.	.
4e 4c 4A 4E\	.	12ddd#X\L	.	.
.	.	12eee\	.	.
.	.	12fff#\J	.	.
*	*	*X8va	*	*
4e 4B 4G# 4E\	.	12eee\L	.	.
.	.	12dddn\	.	.
.	.	12ccc\J	.	.
4e 4c 4A 4E\	.	12ccc\L	.	.
.	.	12ddd\	.	.
.	.	12eee\J	.	.
=62	=62	=62	=62	=62
4e 4B 4G#X 4E\	.	12ddd\L	.	.
.	.	12ccc\	.	.
.	.	12bb\J	.	.
2d 2B 2G# 2E\	.	12bb\L	.	.
.	.	12ccc\	.	.
.	.	12ddd\J	.	.
.	.	12ccc\L	.	.
.	.	12bb\	.	.
.	.	12aa\J	.	.
4c 4A 4E\	.	12aa\L	.	.
.	.	12bb\	.	.
.	.	12ccc\J	.	.
!!LO:LB:g=original
=63	=63	=63	=63	=63
4e 4d 4G#X 4E\	.	12bb\L	.	.
.	.	12aa\	.	.
.	.	12gg#X\J	.	.
4e 4c 4A 4E\	.	12ff#X\L	.	.
.	.	12gg#\	.	.
.	.	12aa\J	.	.
4e 4B 4G#X 4E\	.	12gg#\L	.	.
.	.	12ff#\	.	.
.	.	12ee\J	.	.
4e 4A 4F#X 4D\	.	12dd#X\L	.	.
.	.	12ee\	.	.
.	.	12ff#\J	.	.
=64	=64	=64	=64	=64
*^	*	*^	*	*
4e 4B\ 4G#X 4E\	4ryy	.	4ee\	2.ryy	.	.
2e/	4B 4G# 4E\	.	4eee 4bb 4gg#X 4ee^\	.	.	.
!!LO:TX:a:i:t=un poco più lento
.	4r	.	2r	.	.	.
!LO:TX:a:i:t=tranquillo	!	!	!	!	!	!
!	!	!	!	!	!LO:DY:b=2	!
8.d\L	4ryy	.	.	4ryy	p	.
16e\Jk	.	.	.	.	.	.
*v	*v	*	*	*	*	*
*	*	*v	*v	*	*
=65	=65	=65	=65	=65
4d\	.	1r	.	.
8.c\L	.	.	.	.
16d\Jk	.	.	.	.
4c\	.	.	.	.
8.B\L	.	.	.	.
16c\Jk	.	.	.	.
=66	=66	=66	=66	=66
8B\	.	4r	.	.
8r	.	.	.	.
2c 2A^\	.	4f^/	.	.
.	.	4r	.	.
8.cL 8.G\	.	8.e/L	.	.
16cJk 16A\	.	16f/Jk	.	.
=67	=67	=67	=67	=67
*	*	*^	*	*
8c 8G\	.	2ryy	8e/	.	.
8r	.	.	8r	.	.
2G 2F 2GG^\	.	.	2g 2d 2B^/	.	.
.	.	4ryy	.	.	.
8CL 8CC\	.	8G<L 8E</	8.c/L	.	.
16r	.	16r	.	.	.
16CJk 16CC\	.	16G<Jk 16F</	16d/Jk	.	.
*	*	*v	*v	*	*
!!LO:PB:g=original
=68	=68	=68	=68	=68
8C 8CC\	.	8c 8G< 8E</	.	.
8r	.	8r	.	.
4r	.	2cc^\	.	.
2r	.	.	.	.
.	.	(8.b-X\L	p	.
.	.	16cc\Jk	.	.
=69	=69	=69	=69	=69
1r	.	4b-X\	.	.
.	.	8.a-X/L	.	.
.	.	16b-/Jk	.	.
.	.	4a-/	.	.
.	.	8.g/L	.	.
.	.	16a-/Jk)	.	.
=70	=70	=70	=70	=70
4r	.	8g/	.	.
.	.	8r	.	.
2f^\	.	2dd-X 2a-X^\	.	.
8e-X\L	.	8ccL 8a-/	.	.
16r	.	16r	.	.
16f\Jk	.	16dd-Jk 16a-/	.	.
=71	=71	=71	=71	=71
8e-X\	.	8cc 8a-X/	.	.
8r	.	8r	.	.
2d-X 2E-X\	.	2ee-X 2b-X 2g^\	.	.
4r	.	8.a-/L	.	.
.	.	16b-/Jk	.	.
=72	=72	=72	=72	=72
8c 8A-X\	.	8a-X/	.	.
8r	.	8r	.	.
4r	.	(2aa-X\	.	.
2r	.	.	.	.
.	.	8.gg\L	.	.
.	.	16aa-\Jk	.	.
=73	=73	=73	=73	=73
1r	.	4gg\	.	.
.	.	8.ff\L	.	.
.	.	16gg\Jk	.	.
.	.	4ff\	.	.
.	.	8.ee-X\L	.	.
.	.	16ff\Jk)	.	.
!!LO:LB:g=original
=74	=74	=74	=74	=74
*	*	*^	*	*
4r	.	4ee-X\	4ryy	.	.
8d 8Bn 8A-X 8F\	.	2ddd^/	8dd\	pp	.
8r	.	.	8r	.	.
2r	.	.	4r	.	.
.	.	(8.ccc\L	4ryy	.	.
.	.	16ddd\Jk	.	.	.
*	*	*v	*v	*	*
=75	=75	=75	=75	=75
1r	.	4ccc\	.	.
.	.	8.bb\L	.	.
.	.	16ccc\Jk	.	.
.	.	4ddd\	.	.
.	.	8.ff\L	.	.
.	.	16gg\Jk)	.	.
*clefG2	*	*	*	*
=76	=76	=76	=76	=76
1r	.	(2aa-X\	.	.
.	.	4dd\)	.	.
.	.	(8.ee\L	.	.
.	.	16ff\Jk)	.	.
=77	=77	=77	=77	=77
!	!	!LO:TX:b:i:t=un poco ral-len-tan-do:ext=s:ext2=ud:dur=6hq	!	!
1g 1d 1Bn	.	(2ff\	.	.
.	.	8f/)	.	.
.	.	8r	.	.
.	.	8.ee\L	.	.
.	.	16ff\Jk	.	.
=78	=78	=78	=78	=78
1a 1e-X 1c	.	(2ff\	.	.
.	.	8f/)	.	.
.	.	8r	.	.
.	.	(8.ee\L	.	.
.	.	16ff\Jk)	.	.
=79	=79	=79	=79	=79
*^	*	*^	*	*
1f	2d\	.	4ff/	2b-X\	.	.
.	.	.	8.ee/L	.	.	.
.	.	.	16ff/Jk	.	.	.
.	2e-X\	.	4ff/	2cc\	.	.
.	.	.	8.ee/L	.	.	.
.	.	.	16ff/Jk	.	.	.
!!LO:LB:g=original
=80	=80	=80	=80	=80	=80	=80
!LO:TX:t=P:problem:LO:N:vis=2	!	!	!	!	!	!
[2.f/	4d\	.	4ff/	2b-X\	.	.
.	4d-X\	.	8.ee/L	.	.	.
.	.	.	16ff/Jk	.	.	.
.	4c\	.	4ff/	2g#X\	.	.
8f/]	4B\	.	8.ee/L	.	.	.
8r	.	.	.	.	.	.
.	.	.	16ff/Jk	.	.	.
*v	*v	*	*	*	*	*
*clefF4	*	*	*	*	*
=81	=81	=81	=81	=81	=81
!!LO:TX:i:a:t=a tempo
8F\L	.	(2.ff/	1a 1f	.	.
8c 8A\	.	.	.	.	.
8C\	.	.	.	.	.
8cJ 8A\	.	.	.	.	.
8F\L	.	.	.	.	.
8c 8A\	.	.	.	.	.
8C\	.	8.ee/L	.	.	.
8cJ 8A\	.	.	.	.	.
.	.	16ff/Jk	.	.	.
=82	=82	=82	=82	=82	=82
8F\L	.	2.ee/	1a 1f	.	.
8c 8A\	.	.	.	.	.
8C\	.	.	.	.	.
8cJ 8A\	.	.	.	.	.
8F\L	.	.	.	.	.
8c 8A\	.	.	.	.	.
8C\	.	8.dd/L	.	.	.
8cJ 8A\	.	.	.	.	.
.	.	16ee/Jk	.	.	.
*	*	*v	*v	*	*
=83	=83	=83	=83	=83
8F\L	.	[2dd\	.	.
8c 8A\	.	.	.	.
8C\	.	.	.	.
8cJ 8A\	.	.	.	.
8F\L	.	8dd\L]	.	.
8c 8A\	.	8cc\	.	.
8C\	.	8b-X\	.	.
8cJ 8A\	.	8a\J	.	.
=84	=84	=84	=84	=84
*	*	*^	*	*
8E\L	.	4..cc^/	1g	.	.
8c 8B-X\	.	.	.	.	.
8G\	.	.	.	.	.
8cJ 8B-\	.	.	.	.	.
.	.	16bn/	.	.	.
8E\L	.	4b-X/)	.	.	.
8c 8B-\	.	.	.	.	.
8C\	.	4re	.	.	.
8cJ 8B-\	.	.	.	.	.
*	*	*v	*v	*	*
!!LO:LB:g=original
=85	=85	=85	=85	=85
8E\L	.	(2.gg\	.	.
8c 8B-X\	.	.	.	.
8G\	.	.	.	.
8cJ 8B-\	.	.	.	.
8E\L	.	.	.	.
8c 8B-\	.	.	.	.
8C\	.	8.ff\L	.	.
8cJ 8B-\	.	.	.	.
.	.	16gg\Jk	.	.
=86	=86	=86	=86	=86
8G\L	.	2.ff\	.	.
8c 8B-X\	.	.	.	.
8C\	.	.	.	.
8cJ 8B-\	.	.	.	.
8G\L	.	.	.	.
8c 8B-\	.	.	.	.
8C\	.	8.ee\L	.	.
8cJ 8B-\	.	.	.	.
.	.	16ff\Jk	.	.
=87	=87	=87	=87	=87
*^	*	*	*	*
8G\L	4ryy	.	[2ee\	.	.
8c 8B-X\	.	.	.	.	.
8C\	4C/	.	.	.	.
8cJ 8B-\	.	.	.	.	.
8D\L	4D/	.	8ee\L]	.	.
8c 8B-\	.	.	8dd\	.	.
8E\	4E/	.	8cc\	.	.
8cJ 8B-\	.	.	8b-X\J)	.	.
=88	=88	=88	=88	=88	=88
8F\L	4ryy	.	(4a/	.	.
8c 8A\	.	.	.	.	.
8F\	4F/	.	4dd\	.	.
8BnJ 8A-X\	.	.	.	.	.
8E\L	2ryy	.	8cc\)	.	.
8c 8G\	.	.	8r	.	.
8C\	.	.	4r	.	.
8cJ 8B-X 8E\	.	.	.	.	.
*v	*v	*	*	*	*
=89	=89	=89	=89	=89
8F\L	.	2.fff 2.ff\	.	.
8f 8c\	.	.	.	.
8A\	.	.	.	.
8fJ 8c\	.	.	.	.
8F\L	5	.	.	.
8c 8A\	2 1	.	.	.
8C\	.	8.eeeL 8.ee\	<	.
8cJ 8A\	.	.	.	.
.	.	16fffJk 16ff\	.	.
!!LO:LB:g=original
=90	=90	=90	=90	=90
8F\L	.	2.eee 2.ee\	.	.
8f 8c\	.	.	.	.
8A\	.	.	.	.
8fJ 8c\	.	.	.	.
8F\L	.	.	.	.
8c 8A\	2 1	.	.	.
8C\	.	8.dddL 8.dd\	[	.
8cJ 8A\	.	.	.	.
.	.	16eeeJk 16ee\	.	.
=91	=91	=91	=91	=91
8F\L	.	8dddL 8dd\	.	.
8c 8A\	.	8cccJ 8cc\	.	.
8C\	.	4.aaa 4.aa\	.	.
8AJ 8F\	.	.	.	.
8AA/L	.	.	.	.
8F 8C/	.	8fffL 8ff\	.	.
8FF/	.	8ccc 8cc\	.	.
8FJ 8C/	.	8aaJ 8a\	.	.
=92	=92	=92	=92	=92
8E\L	.	(4.ccc 4.cc\	.	.
8c 8G\	.	.	.	.
8C\	.	.	.	.
8cJ 8G\	.	8bbn 8bn\	.	.
8G\L	.	4bb-X 4b-X\)	.	.
8c\	.	.	.	.
8C\	.	4r	.	.
8cJ 8G\	.	.	.	.
=93	=93	=93	=93	=93
8E\L	.	(2.ggg 2.gg\	.	.
8c 8B-X\	.	.	.	.
8G\	.	.	.	.
8cJ 8B-\	.	.	.	.
8E\L	.	.	.	.
8c 8B-\	.	.	.	.
8C\	.	8.fffL 8.ff\	.	.
8cJ 8B-\	.	.	.	.
.	.	16gggJk 16gg\	.	.
=94	=94	=94	=94	=94
8G\L	.	2.fff 2.ff\	.	.
8c 8B-X\	.	.	.	.
8C\	.	.	.	.
8cJ 8B-\	.	.	.	.
8G\L	.	.	.	.
8c 8B-\	.	.	.	.
8C\	.	8.eeeL 8.ee\	.	.
8cJ 8B-\	.	.	.	.
.	.	16fffJk 16ff\	.	.
!!LO:LB:g=original
=95	=95	=95	=95	=95
*^	*	*	*	*
4G/	8G\L	.	[2eee [2ee\	.	.
.	8c 8B-X\	.	.	.	.
4C/	8C\	.	.	.	.
.	8cJ 8B-\	.	.	.	.
4D/	8D\L	.	8eee]L 8ee\]	.	.
.	8c 8B-\	.	8ddd 8dd\	.	.
4E/	8E\	.	8ccc 8cc\	.	.
.	8cJ 8B-\	.	8bb-XJ 8b-X\)	.	.
*v	*v	*	*	*	*
=96	=96	=96	=96	=96
8F\L	.	(4..aa 4..a\	.	.
8c 8A\	.	.	.	.
8C\	.	.	.	.
8AJ 8F\	.	.	.	.
.	.	16bb-X 16b-X\	.	.
8AA/L	.	4ccc 4cc\	.	.
8F 8C/	.	.	.	.
8FF/	.	4ccc#X 4cc#X\)	.	.
8FJ 8C 8AA/	.	.	.	.
=97	=97	=97	=97	=97
!	!	!	!LO:HP:b:t=cre-scen-do:ext2=ud	!
8BB-X/L	.	[2ddd [2dd\	<	.
8F 8D/	.	.	.	.
8FF/	.	.	.	.
8FJ 8D/	.	.	.	.
8BB-/L	.	8ddd]L 8dd\]	.	.
8F 8D/	.	8eee-X 8ee-X\	.	.
8FF/	.	8eeen 8een\	.	.
8FJ 8D/	.	8fffJ 8ff\	.	.
=98	=98	=98	=98	=98
8BB-X\L	.	2bb-X 2b-X\	.	.
8F 8D\	.	.	.	.
8G\	.	.	.	.
8dJ 8B-X\	.	.	.	.
8F\L	.	8cccL 8cc\	.	.
8d 8B-\	.	8ddd 8dd\	.	.
8D\	.	8eee 8ee\	.	.
8B-J 8F\	.	8fffJ 8ff\	.	.
=99	=99	=99	=99	=99
8BB-X\L	.	4.ggg 4.gg\	.	.
8B-X 8G\	.	.	.	.
8D\	.	.	.	.
8B-J 8G\	.	8ggg 8gg\	.	.
8BB-\L	.	8aaaL 8aa\	.	.
8G 8E 8D\	.	8ggg 8gg\	[	.
8BB-\	.	8fff 8ff\	.	.
8GJ 8E 8D\	.	8gggJ 8gg\	.	.
!!LO:PB:g=original
=100	=100	=100	=100	=100
8AA\L	.	2.aaa 2.aa\	f >	.
8A 8E 8C#X\	.	.	.	.
8AA\	.	.	.	.
8AJ 8E 8C#\	.	.	.	.
8D\L	.	.	.	.
8cn 8A 8F#X\	.	.	.	.
8D\	.	8.aaaL 8.aa\	] p	.
8cJ 8A 8F#\	.	.	.	.
.	.	16gggJk 16gg\	.	.
=101	=101	=101	=101	=101
8GG\L	.	2.ddd 2.dd\	.	.
8G 8D 8BBn\	.	.	.	.
8GG\	.	.	.	.
8GJ 8D 8BB\	.	.	.	.
8C\L	.	.	.	.
8B-X 8E\	.	.	.	.
8C\	.	8.gggL 8.gg\	.	.
8B-J 8E\	.	.	.	.
.	.	16fffJk 16ff\	.	.
=102	=102	=102	=102	=102
*^	*	*	*	*
8FF/L	2ryy	.	2ccc 2cc\	.	.
8F 8C 8AA/	.	.	.	.	.
8FF/	.	.	.	.	.
8FJ 8C 8AA/	.	.	.	.	.
8BB-X/L	4BB-\	.	8ccc#XL 8cc#X\	.	.
8A-X 8F 8D/	.	.	8ddd 8dd\	.	.
8BBn/	4BB\	.	8ddd#X 8dd#X\	.	.
8A-J 8F 8D/	.	.	8eeeJ 8ee\	.	.
=103	=103	=103	=103	=103	=103
8C\L	4ryy	.	8fffL 8ff\	.	.
8An 8F\	.	.	8aa 8a\	.	.
8F\	4F/	.	8bb-X 8b-X\	.	.
8cJ 8A\	.	.	8dddJ 8dd\	.	.
8E\L	2ryy	.	4.ccc 4.cc\	.	.
8c 8B 8G\	.	.	.	.	.
8C\	.	.	.	.	.
8cJ 8G 8E\	.	.	8bb- 8b-\	.	.
=104	=104	=104	=104	=104	=104
4F/	8F\L	.	4.aa 4.a\	.	.
.	8c 8A\	.	.	.	.
4E-X/	8E-\	.	.	.	.
.	8cJ 8A 8F\	.	8ff 8f\	.	.
4D/	8D\L	.	8ggL 8g\	.	.
.	8B-X 8F\	.	8aa 8a\	.	.
4C/	8C\	.	8bb-X 8b-X\	.	.
.	8AJ 8F 8E-\	.	8cccJ 8cc\	.	.
*v	*v	*	*	*	*
!!LO:LB:g=original
=105	=105	=105	=105	=105
8BB-X\L	.	[2ddd [2dd\	.	.
!	!	!	!LO:HP:b:t=cre-scen-do:ext2=ud	!
8B-X 8F 8D\	.	.	<	.
8BB-\	.	.	.	.
8B-J 8F 8D\	.	.	.	.
8BB-\L	.	8ddd]L 8dd\]	.	.
8A 8F 8E-X\	.	8eee-X 8ee-X\	.	.
8BB-\	.	8eeen 8een\	.	.
8AJ 8F 8E-\	.	8fffJ 8ff\	.	.
=106	=106	=106	=106	=106
8BB-X\L	.	2bb-X 2b-X\	.	.
8F 8D\	.	.	.	.
8G\	.	.	.	.
8dJ 8B-X\	.	.	.	.
8F\L	.	8cccL 8cc\	.	.
8d 8B-\	.	8ddd 8dd\	.	.
8D\	.	8eee 8ee\	.	.
8B-J 8F\	.	8fffJ 8ff\	.	.
=107	=107	=107	=107	=107
8BB-X\L	.	4.ggg 4.gg\	[[	.
8B-X 8E 8D\	.	.	.	.
8BB-\	.	.	.	.
8B-J 8E 8D\	.	8ggg 8gg\	.	.
8BB-\L	.	8aaaL 8aa\	.	.
8B- 8E 8D\	.	8ggg 8gg\	.	.
8BB-\	.	8fff 8ff\	.	.
8B-J 8E 8D\	.	8gggJ 8gg\	.	.
=108	=108	=108	=108	=108
*^	*	*	*	*
8AA\L	2ryy	.	2.aaa 2.aa^\	f >	.
8A 8E 8C#X\	.	.	.	.	.
8AA\	.	.	.	.	.
8AJ 8E 8C#\	.	.	.	.	.
8A\L	4ryy	.	.	.	.
8e 8c#X\	.	.	.	.	.
8F#X\	4F#/	.	8.aaaL 8.aa\	] p	.
8e-XJ 8cn\	.	.	.	.	.
.	.	.	16gggJk 16gg\	.	.
=109	=109	=109	=109	=109	=109
8G\L	2.ryy	.	2.ddd 2.dd\	.	.
8d 8B\	.	.	.	.	.
8G\	.	.	.	.	.
8dJ 8B\	.	.	.	.	.
8G\L	.	.	.	.	.
8d 8B\	.	.	.	.	.
8E\	4E/	.	(8.gggL 8.gg\	.	.
8d-XJ 8B-X\	.	.	.	.	.
.	.	.	16fffJk 16ff\	.	.
*v	*v	*	*	*	*
!!LO:LB:g=original
=110	=110	=110	=110	=110
8F\L	.	2ccc 2cc\	.	.
8c 8A\	.	.	.	.
8F\	.	.	.	.
8cJ 8A\	.	.	.	.
8BB-X\L	.	8ccc#XL 8cc#X\	.	.
8d 8A-X 8F\	.	8ddd 8dd\	.	.
8BBn\	.	8ddd#X 8dd#X\	.	.
8dJ 8A- 8F\	.	8eeeJ 8ee\)	.	.
=111	=111	=111	=111	=111
8C\L	.	(8fffL 8ff\	.	.
8c 8An 8F\	.	8aa 8a\	.	.
8C\	.	8bb-X 8b-X\	.	.
8cJ 8A 8F\	.	8dddJ 8dd\	.	.
8C\L	.	[2ccc [2cc\)	.	.
8c 8B-X 8E\	.	.	.	.
8C\	.	.	.	.
8cJ 8B- 8G\	.	.	.	.
=112	=112	=112	=112	=112
8C\L	.	8ccc]L 8cc\]	.	.
8c 8A 8F\	.	8aa 8a\	.	.
8C\	.	8bb-X 8b-X\	.	.
8cJ 8A 8F\	.	8dddJ 8dd\	.	.
8C\L	.	[2ccc [2cc\	.	.
8c 8B-X 8E\	.	.	.	.
8C\	.	.	.	.
8cJ 8B- 8G\	.	.	.	.
=113	=113	=113	=113	=113
8C\L	.	8ccc]L 8cc\]	.	.
8c 8A 8F\	.	8aa 8a\	.	.
!	!	!LO:TX:a:i:t=ac-ce-le-ran-do:ext2=ud:dur=8h	!	!
8C\	.	8bb-X 8b-X\	.	.
8dJ 8B-X 8F\	.	8dddJ 8dd\	.	.
!	!	!	!LO:HP:b:t=cre-scen-do:ext2=ud	!
8C\L	.	8cccL 8cc\	<	.
8c 8A 8F\	.	8aa 8a\	.	.
8C\	.	8bb- 8b-\	.	.
8dJ 8B- 8F\	.	8dddJ 8dd\	.	.
=114	=114	=114	=114	=114
8C\L	.	8cccL 8cc\	.	.
8c 8A 8F\	.	8aa 8a\	.	.
8C\	.	8bb-X 8b-X\	.	.
8dJ 8B-X 8F\	.	8dddJ 8dd\	.	.
8C\L	.	8cccL 8cc\	.	.
8c 8A 8F\	.	8aa 8a\	.	.
8C\	.	8bb- 8b-\	.	.
8dJ 8B- 8F\	.	8dddJ 8dd\	.	.
!!LO:LB:g=original
=115	=115	=115	=115	=115
8C\L	.	8ccc 8cc\	.	.
8c 8G 8E\	.	8cccL 8cc\	.	.
8C\	.	8ddd 8dd\	.	.
8dJ 8B-X 8F\	.	8fffJ 8ff\	.	.
8C\L	.	8eeeL 8ee\	.	.
8c 8G 8E\	.	8ccc 8cc\	.	.
8C\	.	8ddd 8dd\	.	.
8dJ 8B- 8F\	.	8fffJ 8ff\	.	.
=116	=116	=116	=116	=116
8C\L	.	8eeeL 8ee\	.	.
8c 8G 8E\	.	8ccc 8cc\	.	.
8C\	.	8ddd 8dd\	.	.
8dJ 8B-X 8F\	.	8fffJ 8ff\	.	.
8C\L	.	8eeeL 8ee\	.	.
8c 8G 8E\	.	8ccc 8cc\	.	.
8C\	.	8ddd 8dd\	.	.
8dJ 8B- 8F\	.	8fffJ 8ff\	.	.
=117	=117	=117	=117	=117
*	*	*8va	*	*
*^	*	*	*	*
8cL 8G 8C\	4ryy	.	8eee 8ee/	[[	.
8C\	.	.	8eeeL 8ee\	.	.
8D\	4F 4D/	.	8fff 8ff\	.	.
8C\J	.	.	8aaaJ 8aa\	.	.
8E\L	4G 4E/	.	8gggL 8gg\	.	.
8C\	.	.	8eee 8ee\	.	.
8F\	4A 4F/	.	8fff 8ff\	.	.
8C\J	.	.	8aaaJ 8aa\	.	.
=118	=118	=118	=118	=118	=118
4B-X 4E/	8E\L	.	8ggg 8gg\	.	.
.	8C\	.	8gggL 8gg\	.	.
4A 4F/	8F\	.	8aaa 8aa\	.	.
.	8C\J	.	8ccccJ 8ccc\	.	.
4c 4G/	8E\L	.	8bbb-XL 8bb-X\	.	.
.	8C\	.	8ggg 8gg\	.	.
4A 4F/	8D\	.	8aaa 8aa\	.	.
.	8C\J	.	8ccccJ 8ccc\	.	.
*v	*v	*	*	*	*
=119||	=119||	=119||	=119||	=119||
*M2/2	*	*M2/2	*	*
*met(c|)	*	*met(c|)	*	*
*tremolo	*	*	*	*
16CC#X/LL	.	2bbb-X 2ggg 2eee 2bb-X\	??? >	.
16C#X/	.	.	.	.
16CC#/	.	.	.	.
16C#/	.	.	.	.
16CC#/	.	.	.	.
16C#/	.	.	.	.
16CC#/	.	.	.	.
16C#/JJ	.	.	.	.
*Xtremolo	*	*	*	*
4CC#'/	.	4aaa 4ggg 4eee 4aa\	.	.
4r	.	8r	]	.
.	.	8eee 8ee/	.	.
!!LO:LB:g=original
=120	=120	=120	=120	=120
2C#X 2CC#X/	.	2ggg 2eee 2aa 2gg\	sff >	.
4D 4DD/	.	4fff 4ddd 4aa 4ff\	.	.
*	*	*X8va	*	*
8r	.	8r	]	.
8E 8EE/	.	8aa 8gg 8cc#X\	.	.
=121	=121	=121	=121	=121
2E 2EE/	.	2eee 2ccc#X 2gg 2ee\	sff >	.
4F 4FF/	.	4ddd 4aa 4dd\	.	.
8r	.	8r	]	.
8F#X 8FF#X/	.	8aa 8dd\	.	.
=122	=122	=122	=122	=122
2F#X 2FF#X/	.	2cccn 2aa 2dd 2cc\	sff >	.
4.G 4.GG/	.	4.bb-X 4.gg 4.dd 4.b-X\	.	.
8A 8AA\	.	8a 8f#X 8d 8c/	]	.
=123	=123	=123	=123	=123
*	*	*^	*	*
8B-X 8BB-X\	.	(4a/	8a\L	fp	.
8r	.	.	8d\	.	.
4B-'\	.	4g/	8g\	.	.
.	.	.	8d\J	.	.
8B-\L	.	4f#X/	2ryy	.	.
8d\	.	.	.	.	.
8B-\	.	4g/)	.	.	.
8d\J	.	.	.	.	.
*	*	*v	*v	*	*
=124	=124	=124	=124	=124
8dL 8B-X\	.	2.ffn\	sf >	.
8g\	.	.	.	.
8c#X 8A\	.	.	.	.
8a\J	.	.	.	.
8dL 8B-\	.	.	.	.
8g\	.	.	.	.
8c# 8A\	.	([4ee\	]]	.
8a\J	.	.	.	.
!!LO:LB:g=original
=125	=125	=125	=125	=125
8dL 8B-X\	.	4ee\]	<	.
8g\	.	.	.	.
8d 8B-\	.	4dd\	.	.
8g\J	.	.	.	.
8dL 8B-\	.	4cc#X\	.	.
8g\	.	.	.	.
8d 8B-\	.	4dd\)	[[	.
8g\J	.	.	.	.
=126	=126	=126	=126	=126
8c#XL 8A\	.	2.aa\	sf >	.
8a\	.	.	.	.
8c# 8A\	.	.	.	.
8a\J	.	.	.	.
8dL 8Bn\	.	.	.	.
8a\	.	.	.	.
8e 8c#\	.	([4gg\	]]	.
8a\J	.	.	.	.
*clefG2	*	*	*	*
=127	=127	=127	=127	=127
8d/L	.	4gg\]	<	.
8a/	.	.	.	.
8dd 8d/	.	4ff\	.	.
8a/J	.	.	.	.
8ddL 8d/	.	4ee\	.	.
8a/	.	.	.	.
8dd 8d/	.	4ff\)	[[	.
8a/J	.	.	.	.
=128	=128	=128	=128	=128
*^	*	*	*	*
8f/L	4d\	.	2.ddd 2.dd\	sf >	.
8a/	.	.	.	.	.
8f#X/	4c\	.	.	.	.
8a/J	.	.	.	.	.
8fn/L	4B\	.	.	.	.
8g/	.	.	.	.	.
8e/	4B-X\	.	(4ddd-X 4dd-X\	]]	.
8g/J	.	.	.	.	.
*v	*v	*	*	*	*
=129	=129	=129	=129	=129
8cL 8A/	.	(2ccc 2cc^\)	f	.
8f/	.	.	.	.
8c 8A/	.	.	.	.
8f/J	.	.	.	.
8cL 8A/	.	4.ff\	.	.
8f/	.	.	.	.
8c 8A/	.	.	.	.
8f/J	.	8gg\)	.	.
*clefF4	*	*	*	*
!!LO:PB:g=original
=130	=130	=130	=130	=130
*^	*	*	*	*
2c#X/	8A\L	.	(2aa 2a^\	.	.
.	8f\	.	.	.	.
.	8A\	.	.	.	.
.	8f\J	.	.	.	.
2d/	8A\L	.	4.dd\	.	.
.	8f\	.	.	.	.
.	8A\	.	.	.	.
.	8f\J	.	8ee\)	.	.
=131	=131	=131	=131	=131	=131
8c/L	2A\	.	([1ff	.	.
8f/	.	.	.	.	.
8c/	.	.	.	.	.
8f/J	.	.	.	.	.
8d/L	2B-X\	.	.	.	.
8f/	.	.	.	.	.
8d/	.	.	.	.	.
8f/J	.	.	.	.	.
=132	=132	=132	=132	=132	=132
8c/L	2A\	.	4ff\]	.	.
8f/	.	.	.	.	.
8c/	.	.	4ee\	.	.
8f/J	.	.	.	.	.
8Bn/L	2G#X\	.	4ff\	.	.
8f/	.	.	.	.	.
8B/	.	.	4dd\)	.	.
8f/J	.	.	.	.	.
*v	*v	*	*	*	*
=133	=133	=133	=133	=133
8A 8AA\	.	8cc 8f/	.	.
8r	.	8r	.	.
(4A\	.	(4a/	.	.
4B-X\	.	4b-X\	.	.
4d\)	.	4dd\)	.	.
=134	=134	=134	=134	=134
*^	*	*^	*	*
[1c^	2r	.	[1cc^	2r	.	.
!	!	!	!	!	!LO:DY:b=2	!
.	8B-X 8C\	.	.	8g 8e\	pp	.
.	8r	.	.	8r	.	.
.	4r	.	.	4r	.	.
!!LO:LB:g=original
=135	=135	=135	=135	=135	=135	=135
8c/]	8A 8C\	.	8cc/]	8f#X 8d#X\	.	.
8r	2.ryy	.	8r	2.ryy	.	.
(4A\	.	.	(4a/	.	.	.
4c\	.	.	4cc\	.	.	.
4e-X\)	.	.	4ee-X\)	.	.	.
.	8ryy	.	.	8ryy	.	.
=136	=136	=136	=136	=136	=136	=136
[1d^	2r	.	[1dd^	2r	.	.
!	!	!	!	!	!LO:DY:b=2	!
.	8A 8C\	.	.	8a 8f#X\	pp	.
.	8r	.	.	8r	.	.
.	4r	.	.	4r	.	.
=137	=137	=137	=137	=137	=137	=137
8d/]	8B 8BB\	.	8dd/]	8g\	.	.
8r	8ryy	.	8r	2.ryy	.	.
(4d\	2.ryy	.	(4dd\	.	.	.
4fn\	.	.	4ffn\	.	.	.
4a\)	.	.	4aa\)	.	.	.
.	.	.	.	8ryy	.	.
*v	*v	*	*	*	*	*
*	*	*v	*v	*	*
=138	=138	=138	=138	=138
(2g^\	.	(2gg^\	p	.
4.f\	.	4.ff\	.	.
8g\	.	8gg\	.	.
=139	=139	=139	=139	=139
2f\	.	2ff\	.	.
4.e\	.	4.ee\	.	.
8f\	.	8ff\	.	.
=140	=140	=140	=140	=140
2e\	.	2ee\	.	.
4.d\	.	4.dd\	.	.
8e\)	.	8ee\)	.	.
!!LO:LB:g=original
=141||	=141||	=141||	=141||	=141||
*M4/4	*	*M4/4	*	*
*met(c)	*	*met(c)	*	*
!!LO:TX:a:B:t=Moderato.
(2B (2G#X^\	.	(>2dd [2f^>/	p	.
8c 8A\))	.	8cc 8f/])	.	.
8r	.	8r	.	.
4d 4B-X\	.	4f'/	.	.
=142	=142	=142	=142	=142
[2c\	.	(2a (2f/	pp	.
8c] 8C\	.	8g 8e/))	.	.
8r	.	8r	.	.
4r	.	4cc'\	.	.
=143	=143	=143	=143	=143
(2c (2A^\	.	(2ee-X (2f#X^>/	p	.
8d 8B-X\))	.	8dd 8g/))	.	.
8r	.	8r	.	.
4c'\	.	4g 4e-X'/	.	.
=144	=144	=144	=144	=144
[2d\	.	(2b-X (2g/	pp	.
8d] 8D\	.	8a 8f#X/))	.	.
8r	.	8r	.	.
4r	.	4dd\	.	.
=145	=145	=145	=145	=145
2r	.	(2ffn^\	.	.
4r	.	4.ee\)	.	.
4d\	.	.	.	.
.	.	8bn\	.	.
=146	=146	=146	=146	=146
2r	.	(2dd (2f^>/	.	.
4r	.	4.cc 4.e/))	.	.
4BB/	.	.	.	.
.	.	8g#X 8d/	.	.
=147	=147	=147	=147	=147
(2G#X (2D^\	.	(2b (2f/	.	.
8A 8C\))	.	8a 8e/))	.	.
8r	.	8r	.	.
4Gn 4E 4BB\	.	8.eeeL 8.ee\	pp	.
.	.	16eeeJk 16ee\	.	.
!!LO:LB:g=original
=148	=148	=148	=148	=148
*^	*	*	*	*
1F 1AA	4rD	.	2.eee 2.ee\	.	.
.	8.C/L	.	.	.	.
.	16C/Jk	.	.	.	.
.	2C/	.	.	.	.
.	.	.	(8.dddL 8.dd\	.	.
.	.	.	16eeeJk 16ee\	.	.
=149	=149	=149	=149	=149	=149
*	*^	*	*	*	*
1F	2AA\	4r	.	2.ddd 2.dd\	.	.
.	.	8.C/L	.	.	.	.
.	.	16C/Jk	.	.	.	.
.	2AA-\	2C/	.	.	.	.
.	.	.	.	8.cccL 8.cc\	.	.
.	.	.	.	16dddJk 16dd\	.	.
*	*v	*v	*	*	*	*
=150	=150	=150	=150	=150	=150
4r	1C 1GG	.	2.ccc 2.cc\	.	.
8.E/L	.	.	.	.	.
16E/Jk	.	.	.	.	.
2E/	.	.	.	.	.
.	.	.	8.bbL 8.b\	.	.
.	.	.	16cccJk 16cc\	.	.
=151	=151	=151	=151	=151	=151
4r	1D 1GG#X	.	2.bb 2.b\	.	.
8.E/L	.	.	.	.	.
16E/Jk	.	.	.	.	.
2E/	.	.	.	.	.
.	.	.	8.cccL 8.ee\	.	.
.	.	.	16bb\Jk)	.	.
*v	*v	*	*	*	*
=152||	=152||	=152||	=152||	=152||
!	!	!	!LO:DY:a	!
8C 8AA/	.	(2aa\	f >	.
16A\LL	.	.	.	.
16c\JJ	.	.	.	.
16A\LL	.	.	.	.
16c\	.	.	.	.
16A\	.	.	.	.
16c\JJ	.	.	.	.
*tremolo	*	*	*	*
16A\LL	.	4gg\)	]	.
16c\	.	.	.	.
16A\	.	.	.	.
16c\	.	.	.	.
16A\	.	8.r	.	.
16c\	.	.	.	.
16A\	.	.	.	.
16c\JJ	.	16cc\	.	.
!!LO:LB:g=original
=153	=153	=153	=153	=153
!	!	!	!LO:DY:a	!
16A\LL	.	(2ff\	sf >	.
16c\	.	.	.	.
16A\	.	.	.	.
16c\	.	.	.	.
16A\	.	.	.	.
16c\	.	.	.	.
16A\	.	.	.	.
16c\JJ	.	.	.	.
16A\LL	.	4ee\)	]]	.
16c\	.	.	.	.
16A\	.	.	.	.
16c\	.	.	.	.
16A\	.	8.r	.	.
16c\	.	.	.	.
16A\	.	.	.	.
16c\JJ	.	16a/	.	.
=154	=154	=154	=154	=154
*	*	*^	*	*
16B\LL	.	(4.dd/	1f	>	.
16A\	.	.	.	.	.
16B\	.	.	.	.	.
16A\	.	.	.	.	.
16B\	.	.	.	.	.
16A\	.	.	.	.	.
16B\	.	16cc/LL	.	.	.
16A\JJ	.	16b/JJ	.	.	.
*Xtremolo	*	*	*	*	*
16c\LL	.	4a/)	.	]]	.
16A\	.	.	.	.	.
16c\	.	.	.	.	.
16A\JJ	.	.	.	.	.
16d\LL	.	4b 4g#X/	.	.	.
16A\	.	.	.	.	.
16d\	.	.	.	.	.
16A\JJ	.	.	.	.	.
=155	=155	=155	=155	=155	=155
16e\LL	.	(2cc 2a/	8f\	.	.
16A\	.	.	.	.	.
16e\	.	.	8r	.	.
16A\JJ	.	.	.	.	.
16c\LL	.	.	4d#X^\	.	.
16A\	.	.	.	.	.
16c\	.	.	.	.	.
16A\JJ	.	.	.	.	.
12r	.	4b 4g#X/)	8e\	.	.
12f\L	.	.	.	.	.
.	.	.	4.ryy	.	.
12e\J	.	.	.	.	.
12dn\L	.	8r	.	.	.
12c\	.	.	.	.	.
.	.	8e/	.	.	.
12B\J	.	.	.	.	.
=156	=156	=156	=156	=156	=156
12AL 12AA\	.	4a 4c^>/	2ryy	.	.
12E\	.	.	.	.	.
12E\J	.	.	.	.	.
12E\L	.	8.g#XL 8.B/	.	.	.
12E\	.	.	.	.	.
12E\J	.	.	.	.	.
.	.	16ccJk 16c/	.	.	.
12EL 12EE^>/	.	2b^/	8g#\L	.	.
12F/	.	.	.	.	.
.	.	.	16r	.	.
12E/J	.	.	.	.	.
.	.	.	16B\K	.	.
12D/L	.	.	8e\	.	.
12C/	.	.	.	.	.
.	.	.	16r	.	.
12BB/J	.	.	.	.	.
.	.	.	16g#\Jk	.	.
*	*	*v	*v	*	*
!!LO:LB:g=original
=157	=157	=157	=157	=157
12AA/L	.	4cc 4a\	.	.
12E/	.	.	.	.
12E/J	.	.	.	.
12E\L	.	8.ffL 8.a\	.	.
12e\	.	.	.	.
12e\J	.	.	.	.
.	.	16eeJk 16g#X\	.	.
12eL 12E\	.	(4ee 4g#^\	.	.
12f\	.	.	.	.
12e\J	.	.	.	.
12d\L	.	8b\)	.	.
12c\	.	.	.	.
.	.	8r	.	.
12B\J	.	.	.	.
=158	=158	=158	=158	=158
12AL 12AA\	.	4cc 4a\	.	.
12E\	.	.	.	.
12E\J	.	.	.	.
12E\L	.	8.bL 8.g#X/	.	.
12E\	.	.	.	.
12E\J	.	.	.	.
.	.	16ccJk 16a/	.	.
12GnL 12GGn^\	.	2dd 2b^\	.	.
12A\	.	.	.	.
12G\J	.	.	.	.
12F\L	.	.	.	.
12E\	.	.	.	.
12D\J	.	.	.	.
=159	=159	=159	=159	=159
12C\L	.	8.eeL 8.cc\	.	.
12G\	.	.	.	.
12G\J	.	.	.	.
.	.	16ff\K	.	.
12G\L	.	8.aa 8.cc\	.	.
*clefG2	*	*	*	*
12g\	.	.	.	.
12g\J	.	.	.	.
.	.	16ggJk 16b\	.	.
12g/L	.	(4gg 4b^\	.	.
12a/	.	.	.	.
12g/J	.	.	.	.
12f/L	.	8dd\)	.	.
12e/	.	.	.	.
.	.	8r	.	.
12d/J	.	.	.	.
!!LO:PB:g=original
*clefF4	*	*	*	*
=160	=160	=160	=160	=160
*	*	*^	*	*
*	*	*	*^	*	*
*Xtuplet	*	*	*	*	*	*
12c^\L	.	4ee/	4g\	2cc\	p	.
12B\	.	.	.	.	.	.
12A\J	.	.	.	.	.	.
12A\L	.	8.ff/L	2f\	.	.	.
12G\	.	.	.	.	.	.
12A\J	.	.	.	.	.	.
.	.	16ee/Jk	.	.	.	.
12B^\L	.	4dd/	.	2b\	.	.
12A\	.	.	.	.	.	.
12G\J	.	.	.	.	.	.
12G\L	.	4ee/	4e\	.	.	.
12F\	.	.	.	.	.	.
12G\J	.	.	.	.	.	.
*	*	*	*v	*v	*	*
=161	=161	=161	=161	=161	=161
12A^\L	.	4cc/	4e\	.	.
12G\	.	.	.	.	.
12F\J	.	.	.	.	.
12F\L	.	8.dd/L	2d\	.	.
12E\	.	.	.	.	.
12F\J	.	.	.	.	.
.	.	16cc/Jk	.	.	.
12G^\L	.	4b/	.	.	.
12F\	.	.	.	.	.
12E\J	.	.	.	.	.
12E\L	.	8cc/	8c\	.	.
12D\	.	.	.	.	.
.	.	8r	8r	.	.
12C\J	.	.	.	.	.
*	*	*v	*v	*	*
=162	=162	=162	=162	=162
12cL 12A\	.	([2a/	.	.
12d\	.	.	.	.
12c\J	.	.	.	.
12BL 12G\	.	.	.	.
12A\	.	.	.	.
12G\J	.	.	.	.
*	*	*Xtuplet	*	*
[4F\	.	12a]L 12c/	<	.
.	.	12b 12d/	.	.
.	.	12ccJ 12e/	.	.
12F\L]	.	12ddL 12f\	.	.
12E\	.	12ee 12g\	.	.
12D\J	.	12ffJ 12a\)	[[	.
=163	=163	=163	=163	=163
*^	*	*	*	*
12E/L	4C\	.	(4ee 4a (4e/	.	.
12A/	.	.	.	.	.
12G/J	.	.	.	.	.
12F/L	8D\	.	8ddL 8d/))	.	.
12A/	.	.	.	.	.
.	8r	.	16r	.	.
12F/J	.	.	.	.	.
.	.	.	16a/Jk	.	.
12E\L	2ryy	.	(>4cc 4a/	.	.
12A\	.	.	.	.	.
12c\J	.	.	.	.	.
12G#XL 12E\	.	.	8b/)	.	.
12B\	.	.	.	.	.
.	.	.	8r	.	.
12e\J	.	.	.	.	.
!!LO:LB:g=original
=164	=164	=164	=164	=164	=164
*	*	*	*^	*	*
4F/	12F\L	.	[2a/	4r	.	.
.	12A\	.	.	.	.	.
.	12F\J	.	.	.	.	.
4E/	12E\L	.	.	4g#X\	.	.
.	12B\	.	.	.	.	.
.	12e\J	.	.	.	.	.
12c#X/L	4A\	.	12a/L]	4gn\	.	.
12d/	.	.	12b/	.	.	.
12e/J	.	.	12cc#X/J	.	.	.
8A 8D\	4ryy	.	12ddL 12f\	4ryy	.	.
.	.	.	12ee 12g\	.	.	.
8r	.	.	.	.	.	.
.	.	.	12ffJ 12a\	.	.	.
*v	*v	*	*	*	*	*
*	*	*v	*v	*	*
=165	=165	=165	=165	=165
(4e (4c#X\	.	(4gg (4b-X\	sf >	.
8f 8d\))	.	8ffL 8a\))	.	.
8r	.	16r	.	.
.	.	16a\Jk	.	.
(4f#X (4d#X\	.	(4ccn (4a/	] sf >	.
8e\))	.	8bn 8g#X/))	.	.
8r	.	16r	]	.
.	.	16ee\	.	.
=166	=166	=166	=166	=166
(4c#X (4E\	.	(4ggn 4b-X (4gn\	sf >	.
8d 8F\))	.	8ffL 8a 8f\))	.	.
8r	.	16r	.	.
.	.	16a\Jk	.	.
(4e-X (4F#X\	.	(4cc (4a/	] sf >	.
8d 8G\))	.	8bnL 8g/))	.	.
8r	.	16r	.	.
.	.	16b/Jk	]]	.
=167	=167	=167	=167	=167
(4f (4G#X\	.	(4dd (4b\	sf >	.
8e 8A\))	.	8ccL 8a/))	.	.
8r	.	16r	.	.
.	.	16a/Jk	.	.
(4d (4B\	.	(4ff (4g#X\	] sf >	.
8e 8c\))	.	8eeL 8a\))	.	.
8r	.	16r	.	.
.	.	16a\Jk	]]	.
!!LO:LB:g=original
=168	=168	=168	=168	=168
8dL 8F 8D\	.	[4aa [4ff [4dd [4a\	sf >	.
16r	.	.	.	.
16dJk 16G 16E 16D\	.	.	.	.
8d 8A 8F 8D\	.	(12aa]L 12ff] 12dd] 12a\]	.	.
.	.	12gg#X\	.	.
8r	.	.	.	.
.	.	12ggn\J	.	.
2r	.	12ff\L	]	.
.	.	12ee\	.	.
.	.	12dd\J	.	.
.	.	12cc\L	.	.
.	.	12b\	.	.
.	.	12a\J)	.	.
=169	=169	=169	=169	=169
8eL 8c 8E\	.	[4aa [4ee [4cc [4a\	sf >	.
16r	.	.	.	.
16eJk 16d 16B 16E\	.	.	.	.
8e 8c 8A 8E\	.	(12aa]L 12ee] 12cc] 12a\]	.	.
.	.	12gg#X\	.	.
8r	.	.	.	.
.	.	12ggn\J	.	.
2r	.	12ff\L	]	.
.	.	12ee\	.	.
.	.	12dd\J	.	.
.	.	12cc\L	.	.
.	.	12b\	.	.
.	.	12a\J)	.	.
=170	=170	=170	=170	=170
*^	*	*^	*	*
2A/	4F\	.	(4.ccc/	2ee-X\	fp	.
.	4F#X\	.	.	.	.	.
.	.	.	16ddd/LL	.	.	.
.	.	.	16ccc/JJ	.	.	.
8G/L	4G\	.	4bb/	2dd\	.	.
16r	.	.	.	.	.	.
16fn/K	.	.	.	.	.	.
8.e/	4G#X\	.	4een/)	.	.	.
16d/Jk	.	.	.	.	.	.
=171	=171	=171	=171	=171	=171	=171
4c/	4A\	.	(4.aa/	2a\	.	.
4d/	4B\	.	.	.	.	.
.	.	.	16bb/LL	.	.	.
.	.	.	16aa/JJ	.	.	.
2e/	4c\	.	4gg/	2ryy	.	.
.	4c#X\	.	4a/	.	.	.
!!LO:LB:g=original
=172	=172	=172	=172	=172	=172	=172
2f/	4d\	.	4.ff/	4r	.	.
.	4d-X\	.	.	4b-X\	.	.
.	.	.	16gg/LL	.	.	.
.	.	.	16ff/JJ	.	.	.
2ryy	8c\L	.	4ee 4cc 4g/	2ryy	.	.
.	16r	.	.	.	.	.
.	16B-X\K	.	.	.	.	.
.	8A\	.	4cc#X 4a 4e/)	.	.	.
.	16r	.	.	.	.	.
.	16G\Jk	.	.	.	.	.
*v	*v	*	*	*	*	*
*	*	*v	*v	*	*
=173	=173	=173	=173	=173
8F\	.	8dd 8a 8d/	.	.
8r	.	16r	.	.
.	.	16ee\	f	.
4r	.	[4gg^\	.	.
*	*	*tuplet	*	*
!	!	!LO:TUP:a:problem:klamra łukowa	!	!
2r	.	12gg\L]	.	.
.	.	12ff\	.	.
.	.	12ee\J	.	.
!	!	!LO:TUP:a:problem:klamra łukowa	!	!
.	.	12dd\L	.	.
.	.	12cc\	.	.
.	.	12b\J	.	.
=174	=174	=174	=174	=174
*^	*	*	*	*
.	.	.	8qa/	.	.
4C 4AA/	2EE\	.	(2aa\	>	.
4D 4BB/	.	.	.	.	.
[4E 4C/	2EE\	.	4ee\)	.	.
4E] 4BB/	.	.	8.r	]	.
.	.	.	16e/	.	.
*v	*v	*	*	*	*
=175	=175	=175	=175	=175
4F#X 4AA 4EE/	.	(2a/	>	.
4G#X 4BB\	.	.	.	.
4A 4C\	.	4e/)	.	.
4B 4E\	.	8.r	]	.
.	.	16ee\	.	.
!!LO:LB:g=original
=176	=176	=176	=176	=176
4c 4A 4E\	.	(2aa\	>	.
4e 4B 4E\	.	.	.	.
4f#X 4A 4E\	.	8ee\)	.	.
.	.	8r	]	.
4B 4E\	.	8.eeL 8.g#X\	.	.
.	.	16ee\Jk	.	.
=177	=177	=177	=177	=177
8c 8E\	.	8ee 8a\	.	.
8r	.	8r	.	.
4d 4B 4G#X 4D^\	.	4eee 4bb 4gg#X 4ee^\	.	.
4c 4A 4F#X 4C^\	.	4fff#X 4ccc 4aa 4ff#X^\	.	.
4B 4G# 4E 4BB^\	.	4ggg#X 4ddd 4bb 4gg#^\	.	.
=178	=178	=178	=178	=178
*^	*	*	*	*
2A 2E 2C/	4AA\	.	2aaa 2ccc 2aa\	sf >	.
.	4AA\	.	.	.	.
2B 2F 2D/	4AA\	.	4gggn 4ggn\	.	.
.	4AA\	.	8.r	]	.
.	.	.	[16ccc [16aa\	.	.
=179	=179	=179	=179	=179	=179
2B# 2D#X/	4AA\	.	2fff 2ccc] 2aa] 2ff\	.	.
.	4AA\	.	.	.	.
2c#X 2E/	4AA\	.	4eee 4ee\	.	.
.	4AA\	.	8.r	.	.
.	.	.	16aa\	.	.
*v	*v	*	*	*	*
=180	=180	=180	=180	=180
4F 4D 4AA/	.	4ddd 4ff 4dd^\	.	.
4F#X 4D#X 4AA/	.	8.cccL 8.ff#X 8.cc\	.	.
.	.	16bbJk 16b\	.	.
4G 4E 4AA/	.	4aa 4gg 4ee 4a\	.	.
4G#X 4E#X 4AA/	.	4bb 4gg#X 4ee#X 4b\	.	.
!!LO:LB:g=original
=181	=181	=181	=181	=181
*^	*	*	*	*
4AA\	2A/ 2F#X/ 2D#X/	.	(2ccc 2ff#X 2dd#X (2cc\	.	.
4AA\	.	.	.	.	.
*	*tuplet	*	*	*	*
!	!LO:TUP:a:problem:klamra łukowa	!	!	!	!
2ryy	12G#L 12E\	.	8bb 8ee 8b\))	.	.
.	12fn\	.	.	.	.
.	.	.	8r	.	.
.	12e\J	.	.	.	.
*	*Xtuplet	*	*	*	*
.	12d\L	.	4ee\	.	.
.	12c\	.	.	.	.
.	12B\J	.	.	.	.
=182	=182	=182	=182	=182	=182
4c/	12c\L	.	4aa 4a\	.	.
.	12e\	.	.	.	.
.	12E\J	.	.	.	.
8.B/L	12B\L	.	8.gg#XL 8.g#X\	.	.
.	12e\	.	.	.	.
.	12E\J	.	.	.	.
16A/Jk	.	.	16aaJk 16a\	.	.
4G#X/	12G#\L	.	2bb 2b^\	.	.
.	12e\	.	.	.	.
.	12E\J	.	.	.	.
8.A/L	12F#X\L	.	.	.	.
.	12e\	.	.	.	.
.	12E\J	.	.	.	.
16B/Jk	.	.	.	.	.
=183	=183	=183	=183	=183	=183
!	!	!	!	!LO:HP:b:t=cre-scen-do:ext2=ud	!
4A/	12A\L	.	4ccc 4cc^\	<	.
.	12e\	.	.	.	.
.	12E\J	.	.	.	.
8.G#X/L	12G#\L	.	8.bbL 8.b\	.	.
.	12e\	.	.	.	.
.	12E\J	.	.	.	.
16F#X/Jk	.	.	16aaJk 16a\	.	.
12G#L 12E\	2ryy	.	2bb 2ee 2b^\	.	.
12fn\	.	.	.	.	.
12e\J	.	.	.	.	.
12d\L	.	.	.	.	.
12c\	.	.	.	.	.
12B\J	.	.	.	.	.
=184	=184	=184	=184	=184	=184
12cL 12A\	4ryy	.	4ccc 4cc^\	.	.
12e\	.	.	.	.	.
12E\J	.	.	.	.	.
8.B/L	12B\L	.	8.bbL 8.b\	.	.
.	12e\	.	.	.	.
.	12E\J	.	.	.	.
16A/Jk	.	.	16cccJk 16cc\	.	.
2B/	12Gn\L	.	2ddd 2gg 2dd^\	.	.
.	12g\	.	.	.	.
.	12G\J	.	.	.	.
.	12g\L	.	.	.	.
.	12G\	.	.	.	.
.	12g\J	.	.	.	.
*v	*v	*	*	*	*
!!LO:PB:g=original
=185	=185	=185	=185	=185
12C\L	.	4eee 4ee\	[	.
12G\	.	.	.	.
12G#X\J	.	.	.	.
12A\L	.	8.ddd#XL 8.dd#X\	.	.
12F#X\	.	.	.	.
12E\J	.	.	.	.
.	.	16eeeJk 16ee\	.	.
12D#XL 12BB\	.	2fff#X 2ff#X\	.	.
12F#\	.	.	.	.
12B\J	.	.	.	.
12D#L 12BB\	.	.	.	.
12F#\	.	.	.	.
12B\J	.	.	.	.
=186	=186	=186	=186	=186
*	*	*8va	*	*
12GL 12E\	.	4.ggg 4.eee 4.gg\	ff	.
12B\	.	.	.	.
12e\J	.	.	.	.
12GL 12E\	.	.	.	.
12B\	.	.	.	.
.	.	8aaa 8aa\	.	.
12e\J	.	.	.	.
12F#XL 12D#X\	.	4bbb 4fff#X 4bb\	.	.
12B\	.	.	.	.
12d#X\J	.	.	.	.
12GL 12Dn\	.	4bbb 4fffn 4bb\	.	.
12B\	.	.	.	.
12dn\J	.	.	.	.
=187	=187	=187	=187	=187
12EL 12C\	.	4.cccc 4.ggg 4.eee 4.ccc\	.	.
12G\	.	.	.	.
12c\J	.	.	.	.
12EL 12C\	.	.	.	.
12G\	.	.	.	.
.	.	8dddd 8ddd\	.	.
12c\J	.	.	.	.
12DL 12BB\	.	4eeee 4eee\	.	.
12G\	.	.	.	.
12B\J	.	.	.	.
*	*	*X8va	*	*
12DL 12BB-X\	.	4eee 4ddd 4ee\	.	.
12G\	.	.	.	.
12B-X\J	.	.	.	.
!!LO:LB:g=original
=188	=188	=188	=188	=188
12AA\L	.	4eee 4ccc#X 4ee\	p <	.
12A\	.	.	.	.
12AA\J	.	.	.	.
12A\L	.	8fffL 8ddd 8ff\	.	.
12AA\	.	.	.	.
.	.	8gggJ 8eee 8gg\	.	.
12A\J	.	.	.	.
12AA\L	.	4aaa 4fff 4aa\	[ >	.
12A\	.	.	.	.
12AA\J	.	.	.	.
12A\L	.	4ggg 4eee 4gg\	]]	.
12AA\	.	.	.	.
12A\J	.	.	.	.
=189	=189	=189	=189	=189
12BB-X\L	.	2fff 2ddd 2ff\	.	.
12B-X\	.	.	.	.
12BB-\J	.	.	.	.
12AA\L	.	.	.	.
12A\	.	.	.	.
12G#XJ 12GG#X\	.	.	.	.
12AL 12AA\	.	8eee 8ccc#X 8ee\	<	.
12B-\	.	.	.	.
.	.	8r	.	.
12A\J	.	.	.	.
12Gn\L	.	4r	[[	.
12F\	.	.	.	.
12E\J	.	.	.	.
=190	=190	=190	=190	=190
*	*	*8va	*	*
12FL 12D\	.	4.fff 4.ddd 4.ff\	ff	.
12A\	.	.	.	.
12d\J	.	.	.	.
12FL 12D\	.	.	.	.
12A\	.	.	.	.
.	.	8ggg 8gg\	.	.
12d\J	.	.	.	.
12EL 12C#X\	.	4aaa 4eee 4aa\	.	.
12A\	.	.	.	.
12c#X\J	.	.	.	.
12E-XL 12Cn\	.	4aaa 4eee-X 4aa\	.	.
12A\	.	.	.	.
12cn\J	.	.	.	.
=191	=191	=191	=191	=191
12DL 12BB-X\	.	4.bbb-X 4.fff 4.ddd 4.bb-X\	.	.
12F\	.	.	.	.
12B-X\J	.	.	.	.
12DL 12BB-\	.	.	.	.
12F\	.	.	.	.
.	.	8cccc 8ccc\	.	.
12B-\J	.	.	.	.
12CL 12AA\	.	4dddd 4ddd\	.	.
12F\	.	.	.	.
12A\J	.	.	.	.
*	*	*X8va	*	*
12CL 12AA-X\	.	4ddd 4ccc 4dd\	.	.
12F\	.	.	.	.
12A-X\J	.	.	.	.
!!LO:LB:g=original
=192	=192	=192	=192	=192
12GG\L	.	4ddd 4bbn 4dd\	p <	.
12G\	.	.	.	.
12GG\J	.	.	.	.
12G\L	.	8eee-XL 8ccc 8ee-X\	.	.
12GG\	.	.	.	.
.	.	8fffJ 8ddd 8ff\	.	.
12G\J	.	.	.	.
12GG\L	.	4ggg 4eee- 4gg\	.	.
12G\	.	.	.	.
12GG\J	.	.	.	.
12G\L	.	4fff 4ddd 4ff\	[[	.
12GG\	.	.	.	.
12G\J	.	.	.	.
=193	=193	=193	=193	=193
12AA-X\L	.	2eee-X 2ccc 2ee-X\	>	.
12A-X\	.	.	.	.
12AA-\J	.	.	.	.
12GG\L	.	.	.	.
12G\	.	.	.	.
12F#XJ 12FF#X\	.	.	.	.
12G 12GG\	.	8ddd 8bb 8dd\	.	.
12G\L	.	.	.	.
.	.	8r	]	.
12An\J	.	.	.	.
12B\L	.	4r	.	.
12c\	.	.	.	.
12d\J	.	.	.	.
*clefG2	*	*	*	*
=194	=194	=194	=194	=194
*^	*	*	*	*
!	!	!	!LO:TX:b:i:t=dolce	!	!
12r	2e-X^\	.	4r	.	.
12cc/L	.	.	.	.	.
12g/J	.	.	.	.	.
12cc/L	.	.	2gg^\	p	.
12g/	.	.	.	.	.
12cc/J	.	.	.	.	.
12r	4d\	.	.	.	.
12b/L	.	.	.	.	.
12g/J	.	.	.	.	.
12b/L	8r	.	8.ff\L	.	.
12g/J	.	.	.	.	.
.	8B\	.	.	.	.
12r	.	.	.	.	.
.	.	.	16gg\Jk	.	.
=195	=195	=195	=195	=195	=195
12r	2c^\	.	8ff\L	.	.
12cc/L	.	.	.	.	.
.	.	.	8ee-X\J	.	.
12g/J	.	.	.	.	.
12cc/L	.	.	2ee-^\	.	.
12g/	.	.	.	.	.
12cc/J	.	.	.	.	.
12r	4B-X\	.	.	.	.
12g/L	.	.	.	.	.
12e-X/J	.	.	.	.	.
12g/L	8r	.	8.dd\L	.	.
12e-/J	.	.	.	.	.
*clefF4	*	*	*	*	*
!LO:TX:t=P:problem:odwrotna kolejność nuty i pauzy	!	!	!	!	!
.	8E-X\	.	.	.	.
12r	.	.	.	.	.
.	.	.	16ee-\Jk	.	.
!!LO:LB:g=original
=196	=196	=196	=196	=196	=196
12r	2A-X^\	.	8dd\L	.	.
12g/L	.	.	.	.	.
.	.	.	8cc\J	.	.
12c/J	.	.	.	.	.
12f/L	.	.	(4.ff^\	.	.
12c/	.	.	.	.	.
12f/J	.	.	.	.	.
12r	4G\	.	.	.	.
12e-X/L	.	.	.	.	.
.	.	.	8ee-X\L	.	.
12c/J	.	.	.	.	.
12fL 12d/	4r	.	8dd\	.	.
12c/	.	.	.	.	.
.	.	.	8cc\J)	.	.
12gJ 12e-/	.	.	.	.	.
=197	=197	=197	=197	=197	=197
12e-X^/L	1G	.	(8cc\L	.	.
12f#X/	.	.	.	.	.
.	.	.	8bn\J)	.	.
12e-/J	.	.	.	.	.
12g/L	.	.	4.b^\	.	.
12d/	.	.	.	.	.
12g/J	.	.	.	.	.
12fn/L	.	2	.	.	.
12d/	.	.	.	.	.
.	.	.	8dd\	.	.
12f/J	.	.	.	.	.
12g/L	.	.	8dd\L	.	.
12f/	.	.	.	.	.
.	.	.	8gg\J	.	.
12d/J	.	.	.	.	.
=198	=198	=198	=198	=198	=198
*	*	*^	*	*	*
!	!LO:TX:t=P:problem:brak wyświetlania palcowania	!	!	!	!	!
12r	2e-X^\	.	3	(8gg\L	.	.
12g/L	.	.	.	.	.	.
.	.	.	.	8ccc\J)	.	.
12a-X/J	.	.	.	.	.	.
12g/L	.	.	.	2ccc 2cc^\	.	.
12f#X/	.	.	.	.	.	.
12g/J	.	.	.	.	.	.
!	!LO:TX:t=P:problem:brak wyświetlania palcowania	!	!	!	!	!
12r	4d\	.	4	.	.	.
12fn/L	.	1	.	.	.	.
12g/J	.	2	.	.	.	.
12f/L	8r	1	.	8.bb-XL 8.b-X\	.	.
12en/	.	.	.	.	.	.
.	8G\	.	.	.	.	.
12f/J	.	.	.	.	.	.
.	.	.	.	16cccJk 16cc\	.	.
!!LO:LB:g=original
=199	=199	=199	=199	=199	=199	=199
!	!LO:TX:t=P:problem:brak wyświetlania palcowania	!	!	!	!	!
12r	2c^\	.	3	(8bb-XL 8b-X\	.	.
12e-X/L	.	.	.	.	.	.
.	.	.	.	8aa-XJ 8a-X\)	.	.
12f/J	.	.	.	.	.	.
12e-/L	.	.	.	2aa- 2a-^\	.	.
12d/	.	.	.	.	.	.
12e-/J	.	.	.	.	.	.
!	!LO:TX:t=P:problem:brak wyświetlania palcowania	!	!	!	!	!
12r	4B-X\	.	4	.	.	.
12d/L	.	.	.	.	.	.
12e-/J	.	.	.	.	.	.
12d/L	8r	.	.	8.ggL 8.g\	.	.
12c/	.	.	.	.	.	.
.	8E-X\	.	.	.	.	.
12d/J	.	.	.	.	.	.
.	.	.	.	16aa-Jk 16a-\	.	.
*	*	*v	*v	*	*	*
=200	=200	=200	=200	=200	=200
*	*	*	*^	*	*
8c/	2A-X^\	.	8gg\L	2.ryy	.	.
8r	.	.	8ff\J	.	.	.
16c/LL	.	.	(4.ff\	.	.	.
16f/	.	.	.	.	.	.
16c/	.	.	.	.	.	.
16f/JJ	.	.	.	.	.	.
16c/LL	8G\	.	.	.	.	.
16e-X/	.	.	.	.	.	.
16c/	8r	.	8ee-X/L	.	.	.
16e-/JJ	.	.	.	.	.	.
4C/	4ryy	.	8dd/	16g\LL	.	.
.	.	.	.	16e-X\	.	.
.	.	.	8cc/J)	16g\	.	.
.	.	.	.	16e-\JJ	.	.
*v	*v	*	*	*	*	*
=201	=201	=201	=201	=201	=201
*	*	*	*tremolo	*	*
(2E-X\	.	(8cc/L	16a-X\LL	.	.
.	.	.	16f\	.	.
.	.	8bn/J)	16a-\	.	.
.	.	.	16f\	.	.
.	.	2b/	16a-\	.	.
.	.	.	16f\	.	.
.	.	.	16a-\	.	.
.	.	.	16f\JJ	.	.
*	*	*	*Xtremolo	*	*
8D\)	.	.	16a-\LL	.	.
.	.	.	16f\	.	.
8r	.	.	16a-\	.	.
.	.	.	16f\JJ	.	.
8.CL 8.CC/	.	(8ff/L	16cc\LL	.	.
.	.	.	16a-\	.	.
.	.	8aa-XJ 8ff/)	16cc\	.	.
16DJk 16DD/	.	.	16a-\JJ	.	.
!!LO:LB:g=original
=202	=202	=202	=202	=202	=202
*	*	*	*tremolo	*	*
(8CL 8CC/	.	(2aa-X/	16ffLL 16dd\	.	.
.	.	.	16a-X\	.	.
8BBJ 8BBB/)	.	.	16ff 16dd\	.	.
.	.	.	16a-X\	.	.
2BB 2BBB^/	.	.	16ff 16dd\	.	.
.	.	.	16a-X\	.	.
.	.	.	16ff 16dd\	.	.
.	.	.	16a-X\JJ	.	.
*	*	*	*Xtremolo	*	*
.	.	8gg/L	16dd\LL	.	.
.	.	.	16a-\	.	.
.	.	8ff/	16dd\	.	.
.	.	.	16a-\JJ	.	.
8D\L	.	8ee-X/	16a-\LL	.	.
.	.	.	16f\	.	.
8F\J	.	8dd/J)	16a-\	.	.
.	.	.	16f\JJ	.	.
=203	=203	=203	=203	=203	=203
*	*	*	*tremolo	*	*
(4.A-X^\	.	8cc/L	16f\LL	.	.
.	.	.	16d\	.	.
.	.	8b/J	16f\	.	.
.	.	.	16d\	.	.
.	.	(4.b^/	16f\	.	.
.	.	.	16d\	.	.
8G\	.	.	16f\	.	.
.	.	.	16d\JJ	.	.
*	*	*	*Xtremolo	*	*
8F\L	.	.	16a-X\LL	.	.
.	.	.	16d\	.	.
8E-X\	.	8dd/L	16a-\	.	.
.	.	.	16f\JJ	.	.
8D\	.	8ff/	16cc\LL	.	.
.	.	.	16a-\	.	.
8C\J)	.	8aa-X/J)	16ff 16cc\	.	.
.	.	.	16a-\JJ	.	.
*	*	*v	*v	*	*
=204	=204	=204	=204	=204
*^	*	*	*	*
8.A-XL 8.F/	8BB\L	.	[4aa-X 4ff 4a-X^\	.	.
.	8C\J	.	.	.	.
16A-Jk 16F/	.	.	.	.	.
*	*	*	*Xtuplet	*	*
2A- 2F^/	(2C^\	.	12aa-\L]	.	.
.	.	.	12gg\	.	.
.	.	.	12ff\J	.	.
.	.	.	12ee-X\L	.	.
.	.	.	12dd\	.	.
.	.	.	12cc\J	.	.
4A- 4F/	4D\)	.	12b\L	.	.
.	.	.	12dd\	.	.
.	.	.	12ff\J	.	.
=205	=205	=205	=205	=205	=205
8.A-XL 8.F/	8BB\L	.	[4aa-X 4ff 4a-X^\	.	.
.	8C\J	.	.	.	.
16A-Jk 16F/	.	.	.	.	.
2A- 2F^/	(2C^\	.	12aa-\L]	.	.
.	.	.	12gg\	.	.
.	.	.	12ff\J	.	.
.	.	.	12ee-X\L	.	.
.	.	.	12dd\	.	.
.	.	.	12cc\J	.	.
4G 4F/	4D\)	.	12b\L	.	.
.	.	.	12dd\	.	.
.	.	.	12ff\J	.	.
!!LO:PB:g=original
=206	=206	=206	=206	=206	=206
*	*	*	*^	*	*
!LO:N:vis=2	!	!	!	!	!	!
12C/L	2C\	.	(2.ee-X/	2cc 2g\	.	.
12E-X/	.	.	.	.	.	.
12G/J	.	.	.	.	.	.
12c/L	.	.	.	.	.	.
12G/	.	.	.	.	.	.
12E-/J	.	.	.	.	.	.
!LO:N:vis=2	!	!	!	!	!	!
12BB-X/L	2BB-\	.	.	2dd 2g\	.	.
12D/	.	.	.	.	.	.
12G/J	.	.	.	.	.	.
12B-X/L	.	.	4gg/	.	.	.
12G/	.	.	.	.	.	.
12D/J	.	.	.	.	.	.
=207	=207	=207	=207	=207	=207	=207
!LO:N:vis=2	!	!	!	!	!	!
12AA-X/L	2AA-\	.	4ff/	2cc 2f\	.	.
12C/	.	.	.	.	.	.
12F/J	.	.	.	.	.	.
12A-X/L	.	.	4ee-X/	.	.	.
12F/	.	.	.	.	.	.
12C/J	.	.	.	.	.	.
!LO:N:vis=2	!	!	!	!	!	!
12AA-/L	2AA-\	.	4dd/	2f#X\	.	.
12C/	.	.	.	.	.	.
12D/J	.	.	.	.	.	.
12A-/L	.	.	4cc/)	.	.	.
12D/	.	.	.	.	.	.
12C/J	.	.	.	.	.	.
*	*	*	*v	*v	*	*
=208	=208	=208	=208	=208	=208
!LO:N:vis=2	!	!	!	!LO:HP:b=2	!
12GG/L	2GG\	.	2gg 2dd 2b 2g^\	ff <	.
12D/	.	.	.	.	.
12G/J	.	.	.	.	.
12D/L	.	.	.	.	.
12BB/	.	.	.	.	.
12GG/J	.	5	.	.	.
12AA-X/L	12ryy	3	12ffn\L	.	.
12GG/	6GG\	4	12ee-X\	.	.
12AA-/J	.	.	12dd\J	.	.
12AAn/L	12ryy	2	12cc\L	.	.
12GG/	6GG\	4	12b\	.	.
12AA/J	.	.	12cc\J	[[	.
!!LO:LB:g=original
=209	=209	=209	=209	=209	=209
*	*	*^	*	*	*
!	!	!	!	!	!LO:HP:b=2	!
12BB-X/L	12ryy	2	.	(2ee-X 2b-X 2g^\	>	.
12GG/	6GG\	.	4	.	.	.
12BB-/J	.	.	.	.	.	.
12E-X/L	6ryy	.	.	.	.	.
12BB-/	.	.	.	.	.	.
!LO:TX:t=P:problem:LO:N:vis=4	!	!	!	!	!	!
12GG/J	[12GG\	4	.	.	.	.
12AA/L	2GG\]	3	.	8dd 8a\)	.	.
12BB-/	.	2	.	.	.	.
.	.	.	.	8r	.	.
12AA/J	.	1	.	.	.	.
12AA-X/L	.	3	.	4dd 4cc 4d/	]]	.
12BB-/	.	.	.	.	.	.
12AA-/J	.	.	.	.	.	.
*	*	*v	*v	*	*	*
=210	=210	=210	=210	=210	=210
!LO:N:vis=2	!	!	!	!LO:HP:b=2	!
12GG/L	2GG\	.	2gg 2dd 2b 2g^\	<	.
12D/	.	.	.	.	.
12G/J	.	.	.	.	.
12D/L	.	.	.	.	.
12BB/	.	.	.	.	.
12GG/J	.	5	.	.	.
12AA-X/L	12ryy	3	12ff\L	.	.
12GG/	6GG\	4	12ee-X\	.	.
12AA-/J	.	.	12dd\J	.	.
12AAn/L	12ryy	2	12cc\L	.	.
12GG/	6GG\	4	12b\	.	.
12AA/J	.	.	12cc\J	[[	.
=211	=211	=211	=211	=211	=211
12BB-X/L	12ryy	2	(2ee-X 2b-X 2g^\	.	.
!	!	!	!	!LO:HP:b=2	!
12GG/	6GG\	4	.	>	.
12BB-/J	.	.	.	.	.
12E-X/L	6ryy	.	.	.	.
12BB-/	.	.	.	.	.
!LO:TX:t=P:problem:LO:N:vis=4	!	!	!	!	!
12GG/J	[12GG\	.	.	.	.
12AA/L	2GG\]	3	8dd 8a\)	.	.
12BB-/	.	2	.	.	.
.	.	.	8r	.	.
12AA/J	.	1	.	.	.
12AA-X/L	.	.	4dd 4cc 4d/	]]	.
12BB-/	.	.	.	.	.
12AA-/J	.	.	.	.	.
*v	*v	*	*	*	*
!!LO:LB:g=original
=212	=212	=212	=212	=212
4G 4D 4BBn 4GG/	.	12dd\L	.	.
.	.	12gg\	.	.
.	.	12bb\J	.	.
2G 2D 2BB 2GG^/	.	[4ddd 4bb 4gg 4dd^\	ff	.
.	.	12ddd\L]	.	.
.	.	12ccc\	.	.
.	.	12bb\J	.	.
4G 4C 4AA 4GG/	.	12aa\L	.	.
.	.	12bb\	.	.
.	.	12ccc\J	.	.
=213	=213	=213	=213	=213
!	!	!	!LO:HP:b=2	!
4G 4D 4BB 4GG/	.	12bb\L	<	.
.	.	12aa\	.	.
.	.	12gg\J	.	.
4G 4E-X 4C 4GG/	.	12ff#X\L	.	.
.	.	12gg\	.	.
.	.	12aa\J	.	.
4G 4D 4BB 4GG/	.	12gg\L	.	.
.	.	12ffn\	.	.
.	.	12ee-X\J	.	.
4E- 4C 4GG/	.	12ee-\L	.	.
.	.	12ff\	.	.
.	.	12gg\J	[[	.
=214	=214	=214	=214	=214
4G 4BB 4GG/	.	12ff\L	.	.
.	.	12ee-X\	.	.
.	.	12dd\J	.	.
2F 2BB 2GG/	.	12dd\L	.	.
.	.	12ee-\	.	.
.	.	12ff\J	.	.
.	.	12ee-\L	.	.
.	.	12dd\	.	.
.	.	12cc\J	.	.
4E-X 4C 4GG/	.	12cc\L	.	.
.	.	12dd\	.	.
.	.	12ee-\J	.	.
=215	=215	=215	=215	=215
4D 4BB 4GG/	.	12dd\L	.	.
.	.	12cc\	.	.
.	.	12b\J	.	.
4G 4E-X 4C 4GG/	.	12a\L	.	.
.	.	12b\	.	.
.	.	12cc\J	.	.
4G 4D 4BB 4GG/	.	12b/L	.	.
.	.	12a/	.	.
.	.	12g/J	.	.
4G 4E- 4C 4GG/	.	12f#X/L	.	.
.	.	12g/	.	.
.	.	12a/J	.	.
!!LO:LB:g=original
=216	=216	=216	=216	=216
*	*	*^	*	*
4G 4D 4BB 4GG/	.	4g/	4ryy	.	.
!!LO:TX:a:B:t=un poco più lento
4GG 4GGG/	.	(2gg/	4dd 4b 4g\	ff	.
!	!	!	!LO:TX:i:b:t=tranquillo	!	!
2r	.	.	2r	.	.
.	.	8ffn/L	.	p	.
.	.	8gg/J	.	.	.
*	*	*v	*v	*	*
=217	=217	=217	=217	=217
1r	.	4ff\	.	.
.	.	8ee-X\L	.	.
.	.	8ff\J	.	.
.	.	4ee-\	.	.
.	.	8dd\L	.	.
.	.	8ee-\J	.	.
=218	=218	=218	=218	=218
*	*	*^	*	*
2r	.	8dd\)	2ryy	.	.
.	.	8r	.	.	.
.	.	2ddd^\	.	.	.
8A-X 8F 8D 8BB\	.	.	2ryy	pp	.
8r	.	.	.	.	.
4r	.	(8ccc\L	.	.	.
.	.	8bb\J	.	.	.
*	*	*v	*v	*	*
=219	=219	=219	=219	=219
1r	.	4ccc\	.	.
.	.	8bb\L	.	.
.	.	8ccc\J	.	.
.	.	4ddd\	.	.
.	.	8ff\L	.	.
.	.	8gg\J)	.	.
=220	=220	=220	=220	=220
1r	.	(2aa-X\	.	.
.	.	8dd\)	.	.
.	.	8r	.	.
!	!	!LO:TX:b:i:t=ral-len-tan-do:ext2=ud:dur=3h	!	!
.	.	(8.ee-X\L	.	.
.	.	16ff\Jk)	.	.
=221	=221	=221	=221	=221
1r	.	(2ff\	.	.
.	.	8b\)	.	.
.	.	8r	.	.
.	.	8.cc\L	.	.
.	.	16dd\Jk	.	.
!!LO:LB:g=original
=222	=222	=222	=222	=222
1r	.	(2dd\	.	.
.	.	8f/)	.	.
.	.	8r	.	.
.	.	8.f/L	.	.
.	.	16g/Jk	.	.
=223	=223	=223	=223	=223
*^	*	*^	*	*
!	!	!	!	!	!LO:DY:b=2	!
2B-X 2F/	(4.BB-X\	.	(2a-X/	4d\	fp	.
.	.	.	.	4f\	.	.
.	16C\LL	.	.	.	.	.
.	16D\JJ	.	.	.	.	.
2B-/	8E-X\)	.	2g/	4.e-X\	.	.
.	8r	.	.	.	.	.
.	4G\	.	.	.	.	.
.	.	.	.	16d\LL	.	.
.	.	.	.	16c\JJ	.	.
=224	=224	=224	=224	=224	=224	=224
!	!	!	!LO:TX:t=P:problem:obie nuty akordu w prawej ręce spięte pionową klamrą	!	!	!
!	!	!	!	!	!LO:DY:b=2	!
4ryy	(4.GG\	.	2f 2d/)	4Bn</	fp	.
2.G/	.	.	.	4ryy	.	.
.	16AA\LL	.	.	.	.	.
.	16BB\JJ	.	.	.	.	.
.	8C\)	.	[2cc 2e/	4c\	.	.
.	8r	.	.	.	.	.
.	4EE-X\	.	.	8.B\L	.	.
.	.	.	.	16c\Jk	.	.
=225	=225	=225	=225	=225	=225	=225
!	!	!	!LO:TX:b:i:t=un poco rit.	!	!	!
1A-X 1C	2.FF\	.	4cc/]	(2e-X^\	pp	.
.	.	.	(8.b/L	.	.	.
.	.	.	16cc/Jk)	.	.	.
.	.	.	[2cc/	4d\	.	.
.	8.EEn\L	.	.	4c\)	.	.
.	16FF\Jk	.	.	.	.	.
=226	=226	=226	=226	=226	=226	=226
1An 1C	2.FF#X\	.	4cc/]	(2e-X^\	.	.
.	.	.	(<8.b/L	.	.	.
.	.	.	16cc/Jk)	.	.	.
.	.	.	[2cc/	4d\	.	.
.	8.EE#X\L	.	.	4c\)	.	.
.	16FF#\Jk	.	.	.	.	.
!!LO:LB:g=original
=227	=227	=227	=227	=227	=227	=227
2.C/	1B-X 1GG	.	4cc/]	2e-X\	.	.
.	.	.	8.bn/L	.	.	.
.	.	.	16cc/Jk	.	.	.
.	.	.	[2cc/	2en\	.	.
8.BBn/L	.	.	.	.	.	.
16C/Jk	.	.	.	.	.	.
=228	=228	=228	=228	=228	=228	=228
2C/	2AA-X/	.	4cc/]	2f 2c\	.	.
.	.	.	8.b/L	.	.	.
.	.	.	16cc/Jk	.	.	.
2C/	4BB-X 4GG\	.	4cc/	4e-X\	.	.
.	4AA- 4FF\	.	8.bn/L	4d-X\	.	.
.	.	.	16cc/Jk	.	.	.
*v	*v	*	*	*	*	*
=229	=229	=229	=229	=229	=229
!!LO:TX:a:B:t=Tempo I.
4C 4GG 4CC/	.	8cc/	2.c\	.	.
.	.	4g 4en/	.	.	.
4E'\	.	.	.	.	.
.	.	4g 4e/	.	.	.
4C'/	.	.	.	.	.
.	.	4g 4e/	.	.	.
4GG'/	.	.	8.B\L	.	.
.	.	[8g [8e/	.	.	.
.	.	.	16c\Jk	.	.
=230	=230	=230	=230	=230	=230
4C'/	.	8g] 8e/]	2.B\	.	.
.	.	4g 4e/	.	.	.
4E'\	.	.	.	.	.
.	.	4g 4e/	.	.	.
4C'/	.	.	.	.	.
.	.	4g 4e/	.	.	.
4GG'/	.	.	8.A\L	.	.
.	.	[8g [8e/	.	.	.
.	.	.	16B\Jk	.	.
=231	=231	=231	=231	=231	=231
*^	*	*	*	*	*
!	!	!	!LO:TX:t=P:problem:błędne wyświetlanie łuku	!LO:TX:t=P:problem:wszystkie nuty akordu w prawej ręce spięte pionową klamrą	!	!
2ryy	4C'\	.	N(2A</	8g] 8e/]	.	.
.	.	.	.	4e 4c/	.	.
.	4GG'\	.	.	.	.	.
.	.	.	.	4e 4c/	.	.
8A/LN)	4C'\	.	2ryy	.	.	.
8G/	.	.	.	4e 4c/	.	.
!LO:TX:t=P:problem:obie nuty akordu w lewej ręce spięte pionową klamrą	!	!	!	!	!	!
8F/	4GG'\	.	.	.	.	.
8E/J	.	.	.	8e 8c/	.	.
!!LO:PB:g=original
=232	=232	=232	=232	=232	=232	=232
!	!	!	!	!LO:TX:t=P:problem:wszystkie nuty akordu w prawej ręce spięte pionową klamrą	!	!
4..ryy	4BB'\	.	4..G</	8g 8d/	.	.
.	.	.	.	4g 4d/	.	.
.	4D'\	.	.	.	.	.
.	.	.	.	4d 4B/	.	.
16F#X/	.	.	16ryy	.	.	.
2Fn/	4BB'\	.	2ryy	.	.	.
.	.	.	.	4g 4d/	.	.
.	4GG'\	.	.	.	.	.
.	.	.	.	[8g 8d/	.	.
*	*	*	*v	*v	*	*
*v	*v	*	*	*	*
=233	=233	=233	=233	=233
*	*	*^	*	*
4BB'<\	.	8g/]	2.d\	.	.
.	.	4g 4f/	.	.	.
4D'\	.	.	.	.	.
.	.	4g 4f/	.	.	.
4GG'<\	.	.	.	.	.
.	.	4g 4f/	.	.	.
4D'\	.	.	8.c\L	.	.
.	.	[8g [8f/	.	.	.
.	.	.	16d\Jk	.	.
=234	=234	=234	=234	=234	=234
4G'\	.	8g] 8f/]	2.c\	.	.
.	.	4g 4f/	.	.	.
4GG'/	.	.	.	.	.
.	.	4g 4f/	.	.	.
4D'\	.	.	.	.	.
.	.	4g 4f/	.	.	.
4GG'/	.	.	8.B\L	.	.
.	.	[8g [8f/	.	.	.
.	.	.	16c\Jk	.	.
=235	=235	=235	=235	=235	=235
4D'\	.	8g] 8f/]	[2B\	.	.
.	.	4g 4f/	.	.	.
4GG'/	.	.	.	.	.
.	.	4g 4f/	.	.	.
!	!	!LO:TX:t=P:problem:mixed beam	!	!	!
4AA'/	.	.	8B\L]	.	.
.	.	4g 4f/	8A\	.	.
!	!	!	!LO:TX:t=P:problem:obie nuty akordu w lewej ręce spięte pionową klamrą	!	!
4BB\	.	.	8G</	.	.
.	.	[8g 8d/	8F</J	.	.
*	*	*v	*v	*	*
!!LO:LB:g=original
=236	=236	=236	=236	=236
*^	*	*	*	*
(4E/	8C\	.	8g] 8d/	.	.
.	8r	.	4g 4e/	.	.
4A/	(4C\	.	.	.	.
.	.	.	8f#X 8e-X/	.	.
2G/)	8BB\)	.	8r	.	.
.	8r	.	4g 4d/	.	.
.	4GG\	.	.	.	.
.	.	.	8g 8fn 8B/	.	.
*v	*v	*	*	*	*
=237	=237	=237	=237	=237
8C\L	.	(2.ccc 2.cc\	.	.
8G 8E\	.	.	.	.
8GG\	.	.	.	.
8GJ 8E\	.	.	.	.
8C\L	.	.	.	.
8G 8E\	.	.	.	.
8GG\	.	8.bbL 8.b\	.	.
8GJ 8E\	.	.	.	.
.	.	16cccJk 16cc\	.	.
=238	=238	=238	=238	=238
8C\L	.	2.bb 2.b\	.	.
8G 8E\	.	.	.	.
8GG\	.	.	.	.
8GJ 8E\	.	.	.	.
8C\L	.	.	.	.
8G 8E\	.	.	.	.
8GG\	.	8.aaL 8.a\	.	.
8GJ 8E\	.	.	.	.
.	.	16bbJk 16b\	.	.
=239	=239	=239	=239	=239
8C\L	.	8aaL 8a\	.	.
8G 8E\	.	8ggJ 8g\	.	.
8GG\	.	4.eee 4.ee\	.	.
8GJ 8E\	.	.	.	.
8C\L	.	.	.	.
8G 8E\	.	8cccL 8cc\	.	.
8GG\	.	8gg\	.	.
8GJ 8E\	.	8ee\J	.	.
=240	=240	=240	=240	=240
8D\L	.	4.gg 4.g\	.	.
8G 8F\	.	.	.	.
8GG\	.	.	.	.
8GJ 8F\	.	8ff#X 8f#X\	.	.
8D\L	.	4ffn 4fn\)	.	.
8G 8F\	.	.	.	.
8GG\	.	4r	.	.
8GJ 8F\	.	.	.	.
!!LO:LB:g=original
=241	=241	=241	=241	=241
8BB\L	.	(2.ddd 2.dd\	.	.
8G 8F\	.	.	.	.
8GG\	.	.	.	.
8GJ 8F\	.	.	.	.
8D\L	.	.	.	.
8G 8F\	.	.	.	.
8GG\	.	8.cccL 8.cc\	.	.
8GJ 8F\	.	.	.	.
.	.	16dddJk 16dd\	.	.
=242	=242	=242	=242	=242
8GG\L	.	2.ccc 2.cc\	.	.
8G 8F\	.	.	.	.
8GG\	.	.	.	.
8GJ 8F\	.	.	.	.
8D\L	.	.	.	.
8G 8F\	.	.	.	.
8GG\	.	8.bbL 8.b\	.	.
8GJ 8F\	.	.	.	.
.	.	16cccJk 16cc\	.	.
=243	=243	=243	=243	=243
*^	*	*	*	*
!	!	!	!	!LO:HP:b=2	!
8GG\L	4ryy	.	[2bb [2b\	<	.
8G 8F\	.	.	.	.	.
8GG\	4GG/	.	.	.	.
8GJ 8F\	.	.	.	.	.
8AA\L	4AA/	.	8bb]L 8b\]	.	.
8G 8F\	.	.	8aa 8a\	.	.
8BB\	4BB/	.	8gg 8g\	.	.
8GJ 8F\	.	.	8ffJ 8f\	[[	.
=244	=244	=244	=244	=244	=244
*	*	*	*^	*	*
4C/	8C\L	.	4.ee 4.e/	4ryy	.	.
.	8c 8G\	.	.	.	.	.
!	!	!	!	!	!LO:HP:b=2	!
4B-X/	8B-\	.	.	2.ryy	>	.
.	8gJ 8c\	.	8cc\	.	.	.
4A/	8A\L	.	8dd\L	.	.	.
.	8f 8c\	.	8ee\	.	.	.
4G/	8G\	.	8ff\	.	.	.
.	8eJ 8c 8B-\	.	8gg\J)	.	]]	.
*v	*v	*	*	*	*	*
*	*	*v	*v	*	*
=245	=245	=245	=245	=245
8F\L	.	([2aa\	.	.
8c 8A\	.	.	.	.
8C\	.	.	.	.
8cJ 8A\	.	.	.	.
8F\L	.	8aa\L]	.	.
8c 8A\	.	8bb-X\	.	.
8C\	.	8bbn\	.	.
8cJ 8A\	.	8ccc\J	.	.
!!LO:LB:g=original
=246	=246	=246	=246	=246
8F\L	.	2ff\	.	.
8c 8A\	.	.	.	.
8C\	.	.	<	.
8cJ 8A\	.	.	.	.
8F\L	.	8gg\L	.	.
8c 8A\	.	8aa\	.	.
8C\	.	8bbn\	.	.
8cJ 8A\	.	8ccc\J	[[	.
=247	=247	=247	=247	=247
8F\L	.	4.ddd 4.dd\	>	.
8d 8A\	.	.	.	.
8F\	.	.	.	.
8dJ 8A\	.	8ddd 8dd\	.	.
8F\L	.	8eeeL 8ee\	.	.
8d 8A\	.	8ddd 8dd\	.	.
8F\	.	8ccc 8cc\	.	.
8dJ 8A\	.	8dddJ 8dd\)	]]	.
=248	=248	=248	=248	=248
8E\L	.	(2.eee 2.ee\	ppp	.
8e 8B\	.	.	.	.
8G#X\	.	.	.	.
8eJ 8B\	.	.	.	.
8E\L	.	.	.	.
8B 8G#\	2 1	.	.	.
8BB\	.	8.ddd#XL 8.dd#X\	.	.
8BJ 8G#\	.	.	.	.
.	.	16eeeJk 16ee\)	.	.
=249	=249	=249	=249	=249
8E\L	.	(2.ddd#X 2.dd#X\	.	.
8e 8B\	.	.	.	.
8G#X\	.	.	.	.
8eJ 8B\	.	.	.	.
8E\L	.	.	.	.
8B 8G#\	2 1	.	.	.
8BB\	.	8.ccc#XL 8.cc#X\	.	.
8BJ 8G#\	.	.	.	.
.	.	16ddd#Jk 16dd#\)	.	.
=250	=250	=250	=250	=250
8E\L	.	([2ccc#X [2cc#X\	.	.
8B 8G#X\	.	.	.	.
8BB\	.	.	.	.
8BJ 8G#\	.	.	.	.
8E\L	.	8ccc#]L 8cc#\]	.	.
8B 8G#\	.	8bb 8b\	.	.
8BB\	.	8aa 8a\	.	.
8BJ 8G#\	.	8gg#XJ 8g#X\)	.	.
!!LO:LB:g=original
=251	=251	=251	=251	=251
8D#X\L	.	(4.bb 4.b\	.	.
8d#X 8B\	.	.	.	.
8F#X\	.	.	.	.
8d#J 8B\	.	8aa#X 8a#X\	.	.
8D#\L	.	4aan 4an\)	.	.
8B 8F#\	2 1	.	.	.
8BB\	.	4r	.	.
8BJ 8F#\	.	.	.	.
=252	=252	=252	=252	=252
8D#X\L	.	(2.fff#X 2.ff#X\	.	.
8B 8A\	.	.	.	.
8BB\	.	.	.	.
8BJ 8A\	.	.	.	.
8D#\L	.	.	.	.
8B 8A\	.	.	.	.
8BB\	.	8.eeeL 8.ee\	.	.
8BJ 8A\	.	.	.	.
.	.	16fff#Jk 16ff#\)	.	.
=253	=253	=253	=253	=253
8F#X\L	.	(2.eee 2.ee\	.	.
8B 8A\	.	.	.	.
8BB\	.	.	.	.
8BJ 8A\	.	.	.	.
8F#\L	.	.	.	.
8B 8A\	.	.	.	.
8BB\	.	8.ddd#XL 8.dd#X\	.	.
8BJ 8A\	.	.	.	.
.	.	16eeeJk 16ee\)	.	.
=254	=254	=254	=254	=254
8F#X\L	.	([2ddd#X [2dd#X\	.	.
8B 8A\	.	.	.	.
8BB\	.	.	.	.
8BJ 8A\	.	.	.	.
8F#\L	.	8ddd#]L 8dd#\]	.	.
8B 8A\	.	8ccc#X 8cc#X\	.	.
8BB\	.	8bb 8b\	.	.
8BJ 8A\	.	8aaJ 8a\)	.	.
=255	=255	=255	=255	=255
*tremolo	*	*	*	*
16G#XLL 16E\	.	4gg#X 4g#X\	.	.
16B\	.	.	.	.
16G# 16E\	.	.	.	.
16B\	.	.	.	.
16G# 16E\	.	8r	<	.
16B\	.	.	.	.
16G# 16E\	.	(8ee\	.	.
16B\JJ	.	.	.	.
16G#LL 16E\	.	8ff#X\L	.	.
16B\	.	.	.	.
16G# 16E\	.	8gg#\	.	.
16B\	.	.	.	.
16G# 16E\	.	8aa\	.	.
16B\	.	.	.	.
16G# 16E\	.	8bb\J	[[	.
16B\JJ	.	.	.	.
!!LO:LB:g=original
=256	=256	=256	=256	=256
16GnLL 16E\	.	4.ccc 4.cc^\	sf >	.
16c\	.	.	.	.
16G 16E\	.	.	.	.
16c\	.	.	.	.
16G 16E\	.	.	.	.
16c\	.	.	.	.
16G 16E\	.	8bb\	.	.
16c\JJ	.	.	.	.
16GLL 16E\	.	8ccc\L	.	.
16c\	.	.	.	.
16G 16E\	.	8ddd 8dd\	.	.
16c\	.	.	.	.
16G 16E\	.	8ddd#X 8dd#X\	.	.
16c\	.	.	.	.
16G 16E\	.	8eeeJ 8ee\)	]]	.
16c\JJ	.	.	.	.
=257	=257	=257	=257	=257
16G#XLL 16E\	.	4.eee 4.ee\	<	.
16B\	.	.	.	.
16G# 16E\	.	.	.	.
16B\	.	.	.	.
16G# 16E\	.	.	.	.
16B\	.	.	.	.
16G# 16E\	.	(8ee\	.	.
16B\JJ	.	.	.	.
16G#LL 16E\	.	8ff#X\L	.	.
16B\	.	.	.	.
16G# 16E\	.	8gg#X\	.	.
16B\	.	.	.	.
16G# 16E\	.	8aa\	.	.
16B\	.	.	.	.
16G# 16E\	.	8bb\J	[[	.
16B\JJ	.	.	.	.
=258	=258	=258	=258	=258
16GnLL 16E\	.	4.ccc 4.cc^\	sf >	.
16c\	.	.	.	.
16G 16E\	.	.	.	.
16c\	.	.	.	.
16G 16E\	.	.	.	.
16c\	.	.	.	.
16G 16E\	.	8bb\	.	.
16c\JJ	.	.	.	.
16GLL 16E\	.	8ccc\L	.	.
16c\	.	.	.	.
16G 16E\	.	8ddd 8dd\	.	.
16c\	.	.	.	.
16G 16E\	.	8ddd#X 8dd#X\	.	.
16c\	.	.	.	.
16G 16E\	.	8eeeJ 8ee\)	]]	.
16c\JJ	.	.	.	.
*Xtremolo	*	*	*	*
=259	=259	=259	=259	=259
8G#XL 8E\	.	8eee 8ee\	.	.
8B\	.	8r	.	.
!	!	!LO:TX:b:i:t=ac-ce-le-ran-do:ext2=ud:dur=8h	!	!
!	!	!	!LO:HP:b=2:t=cre-scen-do:ext2=ud	!
8G# 8E\	.	8.ddd#XL 8.dd#X^\	pp <	.
8B\J	.	.	.	.
.	.	16eeeJk 16ee\	.	.
8G#L 8E\	.	4eee 4ee\	.	.
8B\	.	.	.	.
8G# 8E\	.	(8.ddd#L 8.dd#^\	.	.
8B\J	.	.	.	.
.	.	16eeeJk 16ee\)	.	.
=260	=260	=260	=260	=260
8G#XL 8E\	.	4eee 4ee\	.	.
8B\	.	.	.	.
8G# 8E\	.	(8.ddd#XL 8.dd#X^\	.	.
8B\J	.	.	.	.
.	.	16eeeJk 16ee\)	.	.
8G#L 8E\	.	4eee 4ee\	.	.
8B\	.	.	.	.
8G# 8E\	.	(8.ddd#L 8.dd#^\	.	.
8B\J	.	.	.	.
.	.	16eeeJk 16ee\)	.	.
!!LO:PB:g=original
=261	=261	=261	=261	=261
8A#XL 8F#X 8E\	.	4fff#X 4ff#X\	.	.
8c#X\	.	.	.	.
8A# 8F# 8E\	.	(8.eee#XL 8.ee#X^\	.	.
8c#\J	.	.	.	.
.	.	16fff#J 16ff#\)	.	.
8A#L 8F# 8E\	.	4fff# 4ff#\	.	.
8c#\	.	.	.	.
8A# 8F# 8E\	.	(8.eee#L 8.ee#^\	.	.
8c#\J	.	.	.	.
.	.	16fff#Jk 16ff#\)	.	.
=262	=262	=262	=262	=262
8A#XL 8F#X 8E\	.	4fff#X 4ff#X\	.	.
8c#X\	.	.	.	.
8A# 8F# 8E\	.	(8.eee#XL 8.ee#X^\	.	.
8c#\J	.	.	.	.
.	.	16fff#J 16ff#\)	.	.
8A#L 8F# 8E\	.	4fff# 4ff#\	.	.
8c#\	.	.	.	.
8A# 8F# 8E\	.	(8.eee#L 8.ee#^\	.	.
8c#\J	.	.	.	.
.	.	16fff#Jk 16ff#\)	.	.
=263	=263	=263	=263	=263
8cnL 8G 8E\	.	4ggg 4gg\	.	.
8e\	.	.	.	.
8c 8G 8E\	.	(8.fff#XL 8.ff#X^\	[	.
8e\J	.	.	.	.
.	.	16gggJk 16gg\)	.	.
8cL 8G 8E\	.	4ggg 4gg\	.	.
8e\	.	.	.	.
8c 8G 8E\	.	(8.fff#L 8.ff#^\	.	.
8e\J	.	.	.	.
.	.	16gggJk 16gg\)	.	.
=264	=264	=264	=264	=264
8cL 8G 8E\	.	4ggg 4gg\	.	.
8e\	.	.	.	.
8c 8G 8E\	.	(8.fff#XL 8.ff#X^\	.	.
8e\J	.	.	.	.
.	.	16gggJk 16gg\)	.	.
8cL 8G 8E\	.	4ggg 4gg\	.	.
8e\	.	.	.	.
8c 8G 8E\	.	(8.fff#L 8.ff#^\	.	.
8e\J	.	.	.	.
.	.	16gggJk 16gg\)	.	.
!!LO:LB:g=original
=265	=265	=265	=265	=265
8dL 8B 8E\	.	4ggg#X 4gg#X\	.	.
8e\	.	.	.	.
8d 8B 8E\	.	(8.fff##XL 8.ff##X^\	.	.
8e\J	.	.	.	.
.	.	16ggg#J 16gg#\)	.	.
8dL 8B 8E\	.	4ggg# 4gg#\	.	.
8e\	.	.	.	.
8d 8B 8E\	.	(8.fff##L 8.ff##^\	.	.
8e\J	.	.	.	.
.	.	16ggg#Jk 16gg#\)	.	.
=266	=266	=266	=266	=266
8dL 8B 8E\	.	4ggg#X 4gg#X\	.	.
8e\	.	.	.	.
8d 8B 8E\	.	(8.fff##XL 8.ff##X^\	.	.
8e\J	.	.	.	.
.	.	16ggg#J 16gg#\)	.	.
8dL 8B 8E\	.	4ggg# 4gg#\	.	.
8e\	.	.	.	.
8d 8B 8E\	.	(8.fff##L 8.ff##^\	.	.
8e\J	.	.	.	.
.	.	16ggg#Jk 16gg#\)	.	.
=267||	=267||	=267||	=267||	=267||
!LO:TX:b:i:t=marcato	!	!	!	!
2.F 2.FF^/	.	8aaa 8aa\	ff	.
!!LO:TX:a:i:t=a tempo più mosso
.	.	8r	.	.
.	.	8aaL 8cc 8a\	.	.
.	.	8aaJ 8cc 8a\	.	.
.	.	[2aa [2cc [2a^\	.	.
8.EL 8.EE/	.	.	.	.
16FJk 16FF/	.	.	.	.
=268	=268	=268	=268	=268
2.E 2.EE/	.	4aa] 4cc] 4a\]	.	.
.	.	8aaL 8cc 8a\	.	.
.	.	8aaJ 8cc 8a\	.	.
.	.	[2aa [2cc [2a^\	.	.
8.DL 8.DD/	.	.	.	.
16EJk 16EE/	.	.	.	.
=269	=269	=269	=269	=269
2.D 2.DD^</	.	4aa] 4cc] 4a\]	.	.
.	.	8aaL 8cc 8a\	.	.
.	.	8aaJ 8cc 8a\	.	.
.	.	[2aa [2cc [2a^\	.	.
8.CL 8.CC/	.	.	.	.
16DJk 16DD/	.	.	.	.
!!LO:LB:g=original
=270	=270	=270	=270	=270
4E 4EE/	.	4aa] 4cc] 4a\]	.	.
4C 4CC/	.	8aaL 8cc 8a\	.	.
.	.	8aaJ 8cc 8a\	.	.
2AA 2AAA^/	.	4aa 4cc 4a\	.	.
.	.	[4aa [4cc [4a^\	.	.
=271	=271	=271	=271	=271
2.F 2.FF</	.	4aa] 4cc] 4a\]	.	.
.	.	8aaL 8cc 8a\	.	.
.	.	8aaJ 8cc 8a\	.	.
.	.	[2aa [2cc [2a^\	.	.
8.E-XL 8.EE-X/	.	.	.	.
16FJk 16FF/	.	.	.	.
=272	=272	=272	=272	=272
2.E-X 2.EE-X^/	.	4aa] 4cc] 4a\]	.	.
.	.	8aaL 8cc 8a\	.	.
.	.	8aaJ 8cc 8a\	.	.
.	.	[2aa [2cc [2a^\	.	.
8.DL 8.DD/	.	.	.	.
16E-Jk 16EE-/	.	.	.	.
=273	=273	=273	=273	=273
2.D 2.DD^/	.	4aa] 4cc] 4a\]	.	.
.	.	8aaL 8cc 8a\	.	.
.	.	8aaJ 8cc 8a\	.	.
.	.	[2aa [2cc [2a^\	.	.
8.CL 8.CC/	.	.	.	.
16DJk 16DD/	.	.	.	.
=274	=274	=274	=274	=274
4E-X 4EE-X/	.	4aa] 4cc] 4a\]	.	.
4C 4CC/	.	2aa 2cc 2a^\	.	.
2AA 2AAA^/	.	.	.	.
.	.	8aaL 8cc 8a\	.	.
.	.	8aaJ 8cc 8a\	.	.
!!LO:LB:g=original
=275	=275	=275	=275	=275
4En 4EEn/	.	4aa 4cc 4a\	.	.
4C 4CC/	.	2ccc 2aa 2cc^\	.	.
2AA 2AAA^/	.	.	.	.
.	.	8cccL 8aa 8a\	.	.
.	.	8cccJ 8aa 8a\	.	.
=276	=276	=276	=276	=276
4F 4FF/	.	4ccc 4aa 4cc\	.	.
4C 4CC/	.	2ccc 2aa 2cc^\	.	.
2AA 2AAA^/	.	.	.	.
.	.	8cccL 8aa 8cc\	.	.
.	.	8cccJ 8aa 8cc\	.	.
=277	=277	=277	=277	=277
4.F#X 4.FF#X/	.	4ccc 4aa 4cc\	.	.
*	*	*8va	*	*
.	.	2aaa 2ccc 2aa\	.	.
8D 8DD/	.	.	.	.
4AA 4AAA/	.	.	.	.
4FF# 4FFF#X/	.	4aaa 4ccc 4aa\	.	.
=278	=278	=278	=278	=278
*ped	*	*	*	*
4GG 4GGG/	.	2.bbb-X 2.eee-X 2.bb-X\	ff	.
8e-XL 8B-X 8G\	.	.	.	.
8g\J	.	.	.	.
8e-L 8B- 8G\	.	.	.	.
8g\	.	.	.	.
8e- 8B- 8G\	.	8.aaaL 8.aa\	.	.
8g\J	.	.	.	.
.	.	16bbb-Jk 16bb-\	.	.
=279	=279	=279	=279	=279
*tremolo	*	*	*	*
8e-XL 8B-X 8G\	.	2.aaa 2.aa^\	.	.
8g\	.	.	.	.
8e- 8B- 8G\	.	.	.	.
8g\J	.	.	.	.
8e-L 8B- 8G\	.	.	.	.
8g\	.	.	.	.
8e- 8B- 8G\	.	8.gggL 8.gg\	.	.
8g\J	.	.	.	.
.	.	16aaaJk 16aa\	.	.
*Xtremolo	*	*	*	*
!!LO:LB:g=original
=280	=280	=280	=280	=280
4e-X 4B-X 4G\	.	4ggg 4gg\	.	.
2g 2B- 2G\	.	8.fffL 8.ff\	.	.
.	.	16gggJk 16gg\	.	.
.	.	4fff 4ff\	.	.
[4g [4B- [4G\	.	8.eee-XL 8.ee-X\	.	.
.	.	16fffJk 16ff\	.	.
=281	=281	=281	=281	=281
4g] 4B-] 4G\]	.	4eee-X 4ee-X/	.	.
2g 2B-X 2G\	.	8.dddL 8.dd/	.	.
.	.	16eee-Jk 16ee-/	.	.
.	.	4ddd 4dd/	.	.
4en 4A 4G\	.	4ccc#X 4cc#X/	.	.
=282	=282	=282	=282	=282
4f 4A 4F\	.	4ddd 4aa 4dd/	<	.
4e 4E\	.	4eee 4ccc#X 4aa 4ee/	.	.
4d 4D\	.	4fff 4ddd 4aa 4ff\	.	.
4cn 4Cn\	.	4fff#X 4ddd 4aa 4ff#X\	.	.
=283	=283	=283	=283	=283
4B 4BB\	.	4ggg 4ddd 4gg\	.	.
4B-X 4BB-X\	.	4ggg#X 4eee 4ddd 4gg#X\	.	.
4A 4AA\	.	4aaa 4fff 4ddd 4aa\	.	.
4G#X 4GG#X/	.	4bbbn 4fff 4ddd 4bbn\	[[	.
=284	=284	=284	=284	=284
4A 4AA\	.	[2cccc [2eee [2ccc\	sff	.
8eL 8c 8A\	.	.	.	.
8eJ 8c 8A\	.	.	.	.
4e 4c 4A\	.	8cccc]L 8eee] 8ccc\]	.	.
.	.	8aaa\	.	.
4r	.	8eee\	.	.
.	.	8ccc\J	.	.
*	*	*X8va	*	*
!!LO:LB:g=original
=285	=285	=285	=285	=285
4E 4EE/	.	[2eee [2gg#X [2ee\	.	.
8BL 8G#X 8E\	.	.	.	.
8BJ 8G# 8E\	.	.	.	.
4B 4G# 4E\	.	8eee]L 8gg#] 8ee\]	.	.
.	.	8ddd\	.	.
4r	.	8ccc\	.	.
.	.	8bb\J	.	.
=286	=286	=286	=286	=286
2.F 2.FF^/	.	8aa\	ff	.
.	.	8r	.	.
.	.	8aaL 8cc 8a\	.	.
.	.	8aaJ 8cc 8a\	.	.
.	.	[2aa [2cc [2a^\	.	.
8.EL 8.EE/	.	.	.	.
16FJk 16FF/	.	.	.	.
=287	=287	=287	=287	=287
2.E 2.EE^/	.	4aa] 4cc] 4a\]	.	.
.	.	8aaL 8cc 8a\	.	.
.	.	8aaJ 8cc 8a\	.	.
.	.	[2aa [2cc [2a^\	.	.
8.DL 8.DD/	.	.	.	.
16EJk 16EE/	.	.	.	.
=288	=288	=288	=288	=288
2.D 2.DD^/	.	4aa] 4cc] 4a\]	.	.
.	.	8aaL 8cc 8a\	.	.
.	.	8aaJ 8cc 8a\	.	.
.	.	[2aa [2cc [2a^\	.	.
8.CL 8.CC/	.	.	.	.
16DJk 16DD/	.	.	.	.
=289	=289	=289	=289	=289
4E 4EE/	.	4aa] 4cc] 4a\]	.	.
4C 4CC/	.	8aaL 8cc 8a\	.	.
.	.	8aaJ 8cc 8a\	.	.
2AA 2AAA^/	.	4aa 4cc 4a\	.	.
.	.	[4aa [4cc [4a^\	.	.
!!LO:PB:g=original
=290	=290	=290	=290	=290
2.F 2.FF^/	.	4aa] 4cc] 4a\]	.	.
.	.	8aaL 8cc 8a\	.	.
.	.	8aaJ 8cc 8a\	.	.
.	.	[2aa [2cc [2a^\	.	.
8.E-XL 8.EE-X/	.	.	.	.
16FJk 16FF/	.	.	.	.
=291	=291	=291	=291	=291
2.E-X 2.EE-X^/	.	4aa] 4cc] 4a\]	.	.
.	.	8aaL 8cc 8a\	.	.
.	.	8aaJ 8cc 8a\	.	.
.	.	[2aa [2cc [2a^\	.	.
8.DL 8.DD/	.	.	.	.
16E-Jk 16EE-/	.	.	.	.
=292	=292	=292	=292	=292
2.D 2.DD^/	.	4aa] 4cc] 4a\]	.	.
.	.	8aaL 8cc 8a\	.	.
.	.	8aaJ 8cc 8a\	.	.
.	.	[2aa [2cc [2a^\	.	.
8.CL 8.CC/	.	.	.	.
16DJk 16DD/	.	.	.	.
=293	=293	=293	=293	=293
4E-X 4EE-X/	.	4aa] 4cc] 4a\]	.	.
4C 4CC/	.	2aa 2cc 2a^\	.	.
2AA 2AAA^/	.	.	.	.
.	.	8aaL 8cc 8a\	.	.
.	.	8aaJ 8cc 8a\	.	.
=294	=294	=294	=294	=294
4En 4EEn/	.	4aa 4cc 4a\	.	.
4C 4CC/	.	2ccc 2aa 2cc^\	.	.
2AA 2AAA^/	.	.	.	.
.	.	8cccL 8aa 8cc\	.	.
.	.	8cccJ 8aa 8cc\	.	.
!!LO:LB:g=original
=295	=295	=295	=295	=295
4F 4FF/	.	4ccc 4aa 4cc\	.	.
4C 4CC/	.	2ccc 2aa 2cc^\	.	.
2AA 2AAA^/	.	.	.	.
.	.	8cccL 8aa 8cc\	.	.
.	.	8cccJ 8aa 8cc\	.	.
=296	=296	=296	=296	=296
4.F#X 4.FF#X/	.	4ccc 4aa 4cc\	.	.
*	*	*8va	*	*
.	.	2aaa 2ccc 2aa\	.	.
8D 8DD/	.	.	.	.
4AA 4AAA/	.	.	.	.
4FF# 4FFF#X/	.	4aaa 4ccc 4aa\	.	.
=297	=297	=297	=297	=297
*ped	*	*	*	*
4GG 4GGG/	.	2.bbb-X 2.eee-X 2.bb-X\	ff	.
8e-XL 8B-X 8G\	.	.	.	.
8g\J	.	.	.	.
8e-L 8B- 8G\	.	.	.	.
8g\	.	.	.	.
8e- 8B- 8G\	.	8.aaaL 8.aa\	.	.
8g\J	.	.	.	.
.	.	16bbb-Jk 16bb-\	.	.
=298	=298	=298	=298	=298
*tremolo	*	*	*	*
8e-XL 8B-X 8G\	.	2.aaa 2.aa^\	.	.
8g\	.	.	.	.
8e- 8B- 8G\	.	.	.	.
8g\J	.	.	.	.
8e-L 8B- 8G\	.	.	.	.
8g\	.	.	.	.
8e- 8B- 8G\	.	8.gggL 8.gg\	.	.
8g\J	.	.	.	.
.	.	16aaaJk 16aa\	.	.
*Xtremolo	*	*	*	*
=299	=299	=299	=299	=299
4e-X 4B-X 4G\	.	4ggg 4gg\	.	.
2g 2B- 2G\	.	8.fffL 8.ff\	.	.
.	.	16gggJk 16gg\	.	.
.	.	4fff 4ff\	.	.
[4g [4B- [4G\	.	8.eee-XL 8.ee-X/	.	.
.	.	16fffJk 16ff/	.	.
!!LO:LB:g=original
=300	=300	=300	=300	=300
4g] 4B-] 4G\]	.	4eee-X 4ee-X/	.	.
2g 2B-X 2G\	.	8.dddL 8.dd/	.	.
.	.	16eee-Jk 16ee-/	.	.
.	.	4ddd 4dd/	.	.
4en 4A 4G\	.	4ccc#X 4cc#X/	.	.
=301	=301	=301	=301	=301
4f 4A 4F\	.	4ddd 4aa 4dd/	<	.
4e 4E\	.	4eee 4ccc#X 4aa 4ee/	.	.
4d 4D\	.	4fff 4ddd 4aa 4ff\	.	.
4cn 4Cn\	.	4fff#X 4ddd 4aa 4ff#X\	.	.
=302	=302	=302	=302	=302
4B 4BB\	.	4ggg 4ddd 4gg\	.	.
4B-X 4BB-X\	.	4ggg#X 4eee 4ddd 4gg#X\	.	.
4A 4AA\	.	4aaa 4fff 4ddd 4aa\	.	.
4G#X 4GG#X/	.	4bbbn 4fff 4ddd 4bbn\	[[	.
=303	=303	=303	=303	=303
4A 4AA\	.	[2cccc [2eee [2ccc\	sff	.
8eL 8c 8A\	.	.	.	.
8eJ 8c 8A\	.	.	.	.
4e 4c 4A\	.	8cccc]L 8eee] 8ccc\]	.	.
.	.	8aaa\	.	.
4r	.	8eee\	.	.
.	.	8ccc\J	.	.
*	*	*X8va	*	*
=304	=304	=304	=304	=304
4E 4EE/	.	[2eee [2gg#X [2ee\	.	.
8BL 8G#X 8E\	.	.	.	.
8BJ 8G# 8E\	.	.	.	.
4B 4G# 4E\	.	8eee]L 8gg#] 8ee\]	.	.
.	.	8ddd\	.	.
4r	.	8ccc\	.	.
.	.	8bb\J	.	.
!!LO:LB:g=original
=305	=305	=305	=305	=305
8A 8AA\	.	8aa\	.	.
8r	.	8r	.	.
!	!	!	!LO:HP:b:t=molto crescendo	!
4G#X 4E\	.	4e 4B/	p <	.
4A 4AA\	.	4f#X 4e 4c/	.	.
4B 4E\	.	4g#X 4e 4d/	.	.
=306	=306	=306	=306	=306
4A 4AA\	.	4a 4e 4c/	.	.
4E\	.	4b 4g#X 4e/	.	.
4A 4AA\	.	4cc 4a 4e/	.	.
4E\	.	4ee 4b 4g# 4e/	.	.
=307	=307	=307	=307	=307
4A 4AA\	.	4ff#X 4ee 4cc 4a\	.	.
4E\	.	4gg#X 4ee 4dd 4b\	.	.
4A 4AA\	.	4aa 4ee 4cc 4a\	.	.
4E\	.	4bb 4gg# 4ee 4dd\	.	.
=308	=308	=308	=308	=308
4A 4AA\	.	4ccc 4aa 4ee 4cc\	.	.
*	*	*8va	*	*
4E 4EE/	.	4eee 4bb 4gg#X 4ee/	.	.
4A 4AA\	.	4fff#X 4eee 4ccc 4ff#X\	.	.
4E 4EE/	.	4ggg#X 4ddd 4bb 4gg#\	.	.
=309	=309	=309	=309	=309
2A 2E 2C 2AA^\	.	2aaa 2eee 2ccc 2aa^\	sff >	.
4A 4BB-X 4AA\	.	4gggn 4eee 4ccc 4ggn\	]	.
4A 4BBn 4AA\	.	8r	.	.
.	.	8ccc\	.	.
!!LO:LB:g=original
=310	=310	=310	=310	=310
2A 2C 2AA\	.	2fff 2ccc 2aa 2ff\	sff >	.
4A 4C#X 4AA\	.	4eee 4ccc#X 4aa 4ee/	.	.
*	*	*X8va	*	*
4A 4D 4AA\	.	8r	]	.
.	.	8aa\	.	.
=311	=311	=311	=311	=311
2A 2D 2AA\	.	2ddd 2aa 2ff 2dd\	sff >	.
4A 4D#X 4AA\	.	8ccc 8aa 8ee 8cc\	.	.
.	.	8r	]	.
4A 4E 4AA\	.	4ee\	.	.
=312	=312	=312	=312	=312
4A 4F 4AA\	.	4ccc 4cc\	.	.
4A 4F#X 4AA\	.	4aa 4a\	.	.
4G 4AA\	.	4ee 4e/	.	.
4G#X 4AA\	.	4cc 4c/	.	.
=313	=313	=313	=313	=313
8A 8AA\	.	8a/	.	.
8r	.	8r	.	.
2A 2E 2C 2AA^\	.	2eee 2ccc 2aa 2ee^\	.	.
4A 4E\	.	4ccc 4ee 4cc\	.	.
=314	=314	=314	=314	=314
4A 4E 4C 4AA\	.	4aa 4cc 4a\	.	.
4A 4E 4C\	.	4ee 4a\	.	.
4A 4E\	.	4cc 4a\	.	.
4A 4E 4C\	.	4ee 4a\	.	.
=315	=315	=315	=315	=315
8A 8E 8C 8AA\	.	8a/	.	.
8r	.	8r	.	.
2A 2E 2C 2AA^\	.	2eee 2ccc 2aa 2ee^\	.	.
4A 4E\	.	4ccc 4ee 4cc\	.	.
!!LO:LB:g=original
=316	=316	=316	=316	=316
4A 4E 4C 4AA\	.	4aa 4cc 4a\	.	.
4A 4E 4C\	.	4ee 4a\	.	.
4A 4E\	.	4cc 4a\	.	.
4A 4E 4C\	.	4ee 4a\	.	.
=317	=317	=317	=317	=317
4A 4E 4C 4AA\	.	4a/	.	.
8.r	.	8.r	.	.
16AA/	.	16a 16A/	.	.
4AAA/	.	4a 4A/	.	.
8.r	.	8.r	.	.
16AA/	.	16a 16A/	.	.
=318	=318	=318	=318	=318
4AAA/	.	4a 4A/	.	.
8.r	.	8.r	.	.
16AA/	.	16a 16A/	.	.
4AAA/	.	4a 4A/	.	.
8.r	.	8.r	.	.
16AA/	.	16a 16A/	.	.
=319	=319	=319	=319	=319
*tremolo	*	*	*	*
8EL 8C 8AA\	.	[1aa [1ee [1cc [1a	fp <	.
8A\	.	.	.	.
8E 8C 8AA\	.	.	.	.
8A\J	.	.	.	.
8EL 8C 8AA\	.	.	.	.
8A\	.	.	.	.
8E 8C 8AA\	.	.	.	.
8A\J	.	.	.	.
=320	=320	=320	=320	=320
8EL 8C 8AA\	.	1aa] 1ee] 1cc] 1a]	.	.
8A\	.	.	.	.
8E 8C 8AA\	.	.	.	.
8A\J	.	.	.	.
8EL 8C 8AA\	.	.	.	.
8A\	.	.	.	.
8E 8C 8AA\	.	.	.	.
8A\J	.	.	[[	.
*Xtremolo	*	*	*	*
=321	=321	=321	=321	=321
4E 4C 4AA/	.	4ccc 4aa 4ee 4cc\	sff	.
4r	.	4r	.	.
2r	.	2r	.	.
==	==	==	==	==
*-	*-	*-	*-	*-
!!!system-decoration: {(p1)}
!!!ENC: Filip Voros
!!!END: 2022-08-27
!!!ENC: Kamil Watkowski
!!!END: 2022-09-30
!!!RDF**kern: > = above
!!!RDF**kern: < = below
!!!YEC: Copyright 2022 Narodowy Instytut Fryderyka Chopina (https://polishscores.org)
!!!YEM: License CC-BY-4.0 (https://creativecommons.org/licenses/by/4.0)
